;FLAVOR:Marlin
;TIME:6446
;Filament used: 3.63684m
;Layer height: 0.2
;MINX:73.618
;MINY:7.509
;MINZ:0.2
;MAXX:146.382
;MAXY:212.491
;MAXZ:12
;Generated with Cura_SteamEngine 4.8.0
M140 S60
M105
M190 S60
M104 S200
M105
M109 S200
M82 ;absolute extrusion mode
; Ender 3 Custom Start G-code
G92 E0 ; Reset Extruder
G28 ; Home all axes
G1 Z2.0 F3000 ; Move Z Axis up little to prevent scratching of Heat Bed
G1 X0.1 Y20 Z0.3 F5000.0 ; Move to start position
G1 X0.1 Y200.0 Z0.3 F1500.0 E15 ; Draw the first line
G1 X0.4 Y200.0 Z0.3 F5000.0 ; Move to side a little
G1 X0.4 Y20 Z0.3 F1500.0 E30 ; Draw the second line
G92 E0 ; Reset Extruder
G1 Z2.0 F3000 ; Move Z Axis up little to prevent scratching of Heat Bed
G1 X5 Y20 Z0.3 F5000.0 ; Move over to prevent blob squish
G92 E0
G92 E0
G1 F1500 E-6.5
;LAYER_COUNT:60
;LAYER:0
M107
G0 F6000 X79.073 Y23.054 Z0.2
;TYPE:SKIRT
G1 F1500 E0
G1 F1200 X79.363 Y22.162 E0.0312
G1 X79.727 Y21.297 E0.06241
G1 X80.164 Y20.467 E0.09361
G1 X80.669 Y19.677 E0.12479
G1 X81.24 Y18.934 E0.15596
G1 X81.844 Y18.27 E0.18582
G1 X81.998 Y18.114 E0.19311
G1 X82.685 Y17.475 E0.22431
G1 X83.423 Y16.898 E0.25547
G1 X84.334 Y16.311 E0.29152
G1 X85.165 Y15.876 E0.32271
G1 X85.809 Y15.598 E0.34604
G1 X86.71 Y15.243 E0.37825
G1 X89.123 Y14.253 E0.465
G1 X91.423 Y13.233 E0.54868
G1 X93.709 Y12.14 E0.63296
G1 X95.901 Y11.014 E0.71492
G1 X98.138 Y9.786 E0.7998
G1 X98.574 Y9.531 E0.8166
G1 X99.601 Y8.949 E0.85586
G1 X100.436 Y8.522 E0.88705
G1 X101.304 Y8.167 E0.91824
G1 X102.199 Y7.888 E0.94943
G1 X103.115 Y7.686 E0.98062
G1 X104.045 Y7.563 E1.01183
G1 X104.653 Y7.525 E1.03209
G1 X105.038 Y7.515 E1.0449
G1 X105.581 Y7.509 E1.06296
G1 X106.618 Y7.509 E1.09745
G1 X107.481 Y7.52 E1.12615
G1 X107.791 Y7.529 E1.13647
G1 X108.626 Y7.564 E1.16427
G1 X111.263 Y7.638 E1.25201
G1 X113.786 Y7.638 E1.33592
G1 X116.303 Y7.566 E1.41967
G1 X116.581 Y7.553 E1.42893
G1 X117.481 Y7.521 E1.45888
G1 X117.738 Y7.515 E1.46743
G1 X118.281 Y7.509 E1.48549
G1 X119.49 Y7.51 E1.52571
G1 X120.195 Y7.521 E1.54916
G1 X121.131 Y7.576 E1.58034
G1 X122.059 Y7.71 E1.61153
G1 X122.973 Y7.923 E1.64274
G1 X123.865 Y8.213 E1.67394
G1 X124.729 Y8.577 E1.70512
G1 X125.518 Y8.991 E1.73476
G1 X126.325 Y9.456 E1.76573
G1 X128.577 Y10.713 E1.85151
G1 X130.82 Y11.884 E1.93567
G1 X133.072 Y12.978 E2.01894
G1 X135.356 Y14.01 E2.1023
G1 X138.396 Y15.268 E2.21173
G1 X139.233 Y15.597 E2.24164
G1 X140.09 Y15.977 E2.27282
G1 X140.912 Y16.428 E2.30401
G1 X141.693 Y16.948 E2.33521
G1 X142.426 Y17.533 E2.36641
G1 X142.962 Y18.031 E2.39074
G1 X143.111 Y18.179 E2.39773
G1 X143.748 Y18.867 E2.42891
G1 X144.323 Y19.608 E2.46011
G1 X144.834 Y20.395 E2.49132
G1 X145.275 Y21.222 E2.52249
G1 X145.645 Y22.084 E2.55369
G1 X145.94 Y22.974 E2.58487
G1 X146.157 Y23.887 E2.61609
G1 X146.293 Y24.776 E2.646
G1 X146.311 Y24.939 E2.65145
G1 X146.376 Y26.004 E2.68694
G1 X146.382 Y26.532 E2.7045
G1 X146.381 Y27.748 E2.74495
G1 X146.371 Y28.45 E2.7683
G1 X146.318 Y29.386 E2.79948
G1 X146.185 Y30.314 E2.83066
G1 X145.973 Y31.228 E2.86187
G1 X145.685 Y32.121 E2.89308
G1 X145.333 Y32.959 E2.92331
G1 X144.704 Y34.3 E2.97257
G1 X144.608 Y34.497 E2.97986
G1 X143.562 Y36.82 E3.06459
G1 X142.604 Y39.112 E3.14722
G1 X141.692 Y41.492 E3.23199
G1 X140.872 Y43.819 E3.31405
G1 X140.087 Y46.271 E3.39968
G1 X139.402 Y48.636 E3.48158
G1 X138.765 Y51.092 E3.56597
G1 X138.196 Y53.568 E3.65046
G1 X137.708 Y56.018 E3.73355
G1 X137.288 Y58.488 E3.81688
G1 X136.933 Y60.999 E3.90123
G1 X136.649 Y63.51 E3.98528
G1 X136.441 Y65.985 E4.06789
G1 X136.302 Y68.472 E4.15074
G1 X136.222 Y72.34 E4.27941
G1 X136.221 Y200.791 E8.55171
G1 X136.211 Y201.52 E8.57596
G1 X136.158 Y202.456 E8.60714
G1 X136.026 Y203.385 E8.63835
G1 X135.815 Y204.299 E8.66955
G1 X135.527 Y205.191 E8.70073
G1 X135.164 Y206.056 E8.73193
G1 X134.728 Y206.887 E8.76314
G1 X134.224 Y207.677 E8.79431
G1 X133.653 Y208.422 E8.82553
G1 X132.99 Y209.147 E8.8582
G1 X132.878 Y209.259 E8.86347
G1 X132.187 Y209.893 E8.89466
G1 X131.445 Y210.467 E8.92586
G1 X130.656 Y210.974 E8.95706
G1 X129.828 Y211.413 E8.98823
G1 X128.964 Y211.78 E9.01945
G1 X128.073 Y212.072 E9.05063
G1 X127.16 Y212.286 E9.08182
G1 X126.232 Y212.423 E9.11302
G1 X125.471 Y212.475 E9.13839
G1 X125.086 Y212.485 E9.1512
G1 X124.543 Y212.491 E9.16926
G1 X85.167 Y212.49 E10.47891
G1 X84.469 Y212.48 E10.50213
G1 X83.533 Y212.426 E10.53332
G1 X82.605 Y212.294 E10.56449
G1 X81.691 Y212.082 E10.5957
G1 X80.799 Y211.793 E10.62689
G1 X79.934 Y211.43 E10.65809
G1 X79.104 Y210.994 E10.68927
G1 X78.313 Y210.489 E10.72048
G1 X77.569 Y209.918 E10.75168
G1 X76.876 Y209.286 E10.78287
G1 X76.239 Y208.598 E10.81406
G1 X75.664 Y207.857 E10.84525
G1 X75.153 Y207.071 E10.87643
G1 X74.711 Y206.243 E10.90765
G1 X74.342 Y205.381 E10.93884
G1 X74.047 Y204.491 E10.97002
G1 X73.829 Y203.579 E11.00121
G1 X73.689 Y202.651 E11.03242
G1 X73.631 Y201.779 E11.06149
G1 X73.622 Y201.447 E11.07254
G1 X73.618 Y201.149 E11.08245
G1 X73.619 Y195.938 E11.25577
G1 X73.629 Y195.235 E11.27915
G1 X73.682 Y194.298 E11.31037
G1 X73.815 Y193.37 E11.34155
G1 X74.027 Y192.456 E11.37276
G1 X74.315 Y191.564 E11.40393
G1 X74.679 Y190.699 E11.43514
G1 X75.115 Y189.869 E11.46633
G1 X75.62 Y189.078 E11.49754
G1 X76.364 Y188.131 E11.5376
G1 X76.606 Y187.855 E11.54981
G1 X78.297 Y185.877 E11.63636
G1 X79.866 Y183.931 E11.7195
G1 X81.393 Y181.925 E11.80335
G1 X82.873 Y179.862 E11.8878
G1 X84.264 Y177.803 E11.97044
G1 X85.611 Y175.68 E12.05407
G1 X86.91 Y173.498 E12.13853
G1 X88.145 Y171.289 E12.2227
G1 X89.3 Y169.073 E12.30582
G1 X90.396 Y166.818 E12.38921
G1 X91.439 Y164.51 E12.47345
G1 X92.409 Y162.187 E12.55718
G1 X93.323 Y159.818 E12.64163
G1 X94.152 Y157.466 E12.72458
G1 X94.918 Y155.081 E12.80789
G1 X95.624 Y152.655 E12.89193
G1 X96.255 Y150.228 E12.97533
G1 X96.825 Y147.75 E13.0599
G1 X97.322 Y145.28 E13.1437
G1 X97.74 Y142.827 E13.22647
G1 X98.096 Y140.332 E13.31029
G1 X98.38 Y137.829 E13.39408
G1 X98.595 Y135.292 E13.47876
G1 X98.735 Y132.831 E13.56074
G1 X98.807 Y130.272 E13.64589
G1 X98.807 Y127.784 E13.72864
G1 X98.735 Y125.225 E13.81379
G1 X98.594 Y122.742 E13.89651
G1 X98.382 Y120.252 E13.97962
G1 X98.094 Y117.72 E14.06438
G1 X97.743 Y115.256 E14.14716
G1 X97.317 Y112.77 E14.23105
G1 X96.618 Y109.368 E14.34657
G1 X79.048 Y31.359 E17.00615
G1 X78.907 Y30.686 E17.02902
G1 X78.754 Y29.76 E17.06024
G1 X78.679 Y28.803 E17.09217
G1 X78.67 Y28.446 E17.10404
G1 X78.663 Y27.83 E17.12453
G1 X78.663 Y26.494 E17.16897
G1 X78.673 Y25.832 E17.19099
G1 X78.727 Y24.896 E17.22217
G1 X78.861 Y23.967 E17.25339
G1 X79.073 Y23.054 E17.28457
G0 F6000 X79.472 Y23.112
G1 F1200 X79.761 Y22.238 E17.31518
G1 X80.125 Y21.392 E17.34582
G1 X80.561 Y20.581 E17.37644
G1 X81.065 Y19.811 E17.40705
G1 X81.634 Y19.087 E17.43768
G1 X82.128 Y18.551 E17.46192
G1 X82.282 Y18.395 E17.46921
G1 X82.957 Y17.769 E17.49983
G1 X83.684 Y17.203 E17.53047
G1 X84.534 Y16.657 E17.56408
G1 X85.35 Y16.231 E17.59469
G1 X85.955 Y15.97 E17.61661
G1 X86.888 Y15.602 E17.64997
G1 X89.288 Y14.618 E17.73624
G1 X91.592 Y13.595 E17.82008
G1 X93.843 Y12.52 E17.90305
G1 X96.125 Y11.347 E17.98839
G1 X98.342 Y10.13 E18.07251
G1 X98.771 Y9.879 E18.08904
G1 X99.798 Y9.297 E18.1283
G1 X100.618 Y8.878 E18.15893
G1 X101.471 Y8.532 E18.18955
G1 X102.351 Y8.262 E18.22016
G1 X103.251 Y8.068 E18.25078
G1 X104.165 Y7.954 E18.28142
G1 X104.666 Y7.925 E18.29811
G1 X105.042 Y7.915 E18.31062
G1 X105.581 Y7.909 E18.32855
G1 X106.618 Y7.909 E18.36304
G1 X107.476 Y7.92 E18.39158
G1 X107.774 Y7.928 E18.40149
G1 X108.668 Y7.966 E18.43125
G1 X111.252 Y8.038 E18.51723
G1 X113.763 Y8.038 E18.60075
G1 X116.335 Y7.964 E18.68633
G1 X116.595 Y7.953 E18.69498
G1 X117.495 Y7.921 E18.72494
G1 X117.742 Y7.915 E18.73316
G1 X118.281 Y7.909 E18.75108
G1 X119.483 Y7.91 E18.79106
G1 X120.188 Y7.921 E18.81451
G1 X121.107 Y7.976 E18.84513
G1 X122.018 Y8.109 E18.87576
G1 X122.914 Y8.322 E18.90639
G1 X123.788 Y8.611 E18.937
G1 X124.634 Y8.975 E18.96764
G1 X125.319 Y9.338 E18.99342
G1 X126.114 Y9.796 E19.02394
G1 X128.404 Y11.074 E19.11116
G1 X130.639 Y12.241 E19.19502
G1 X132.898 Y13.339 E19.27856
G1 X135.203 Y14.38 E19.36268
G1 X138.213 Y15.626 E19.47103
G1 X139.087 Y15.969 E19.50226
G1 X139.928 Y16.343 E19.53287
G1 X140.734 Y16.788 E19.5635
G1 X141.498 Y17.302 E19.59412
G1 X142.215 Y17.879 E19.62473
G1 X142.68 Y18.314 E19.64591
G1 X142.829 Y18.462 E19.6529
G1 X143.453 Y19.139 E19.68352
G1 X144.017 Y19.867 E19.71415
G1 X144.515 Y20.642 E19.74479
G1 X144.944 Y21.456 E19.77539
G1 X145.3 Y22.305 E19.80601
G1 X145.582 Y23.181 E19.83662
G1 X145.787 Y24.079 E19.86726
G1 X145.895 Y24.82 E19.89216
G1 X145.913 Y24.983 E19.89762
G1 X145.976 Y26.009 E19.93181
G1 X145.982 Y26.532 E19.9492
G1 X145.981 Y27.742 E19.98945
G1 X145.971 Y28.444 E20.0128
G1 X145.918 Y29.363 E20.04341
G1 X145.785 Y30.274 E20.07404
G1 X145.574 Y31.17 E20.10465
G1 X145.286 Y32.045 E20.13529
G1 X144.971 Y32.79 E20.16219
G1 X144.344 Y34.126 E20.21128
G1 X144.235 Y34.35 E20.21956
G1 X143.205 Y36.637 E20.30299
G1 X142.226 Y38.98 E20.38745
G1 X141.325 Y41.332 E20.47122
G1 X140.49 Y43.701 E20.55476
G1 X139.708 Y46.143 E20.64005
G1 X139.016 Y48.53 E20.72271
G1 X138.374 Y51.008 E20.80785
G1 X137.8 Y53.505 E20.89306
G1 X137.321 Y55.91 E20.97462
G1 X136.885 Y58.471 E21.06103
G1 X136.537 Y60.935 E21.1438
G1 X136.255 Y63.43 E21.22731
G1 X136.039 Y66.001 E21.31312
G1 X135.903 Y68.442 E21.39444
G1 X135.822 Y72.332 E21.52385
G1 X135.821 Y200.785 E25.79621
G1 X135.811 Y201.514 E25.82046
G1 X135.758 Y202.434 E25.85111
G1 X135.626 Y203.345 E25.88172
G1 X135.416 Y204.241 E25.91233
G1 X135.128 Y205.115 E25.94294
G1 X134.765 Y205.962 E25.97359
G1 X134.331 Y206.773 E26.00418
G1 X133.827 Y207.544 E26.03482
G1 X133.259 Y208.269 E26.06545
G1 X132.707 Y208.864 E26.09245
G1 X132.595 Y208.976 E26.09772
G1 X131.917 Y209.598 E26.12832
G1 X131.187 Y210.159 E26.15894
G1 X130.411 Y210.655 E26.18957
G1 X129.595 Y211.081 E26.22019
G1 X128.745 Y211.435 E26.25081
G1 X127.867 Y211.713 E26.28144
G1 X126.969 Y211.915 E26.31206
G1 X126.056 Y212.038 E26.3427
G1 X125.458 Y212.075 E26.36263
G1 X125.082 Y212.085 E26.37514
G1 X124.543 Y212.091 E26.39306
G1 X85.173 Y212.09 E27.70252
G1 X84.475 Y212.08 E27.72573
G1 X83.556 Y212.027 E27.75635
G1 X82.645 Y211.894 E27.78697
G1 X81.749 Y211.683 E27.81759
G1 X80.875 Y211.395 E27.84819
G1 X80.028 Y211.032 E27.87884
G1 X79.217 Y210.597 E27.90945
G1 X78.447 Y210.093 E27.94006
G1 X77.723 Y209.524 E27.97069
G1 X77.051 Y208.894 E28.00133
G1 X76.436 Y208.209 E28.03194
G1 X75.883 Y207.473 E28.06256
G1 X75.396 Y206.692 E28.09318
G1 X74.979 Y205.871 E28.1238
G1 X74.634 Y205.017 E28.15444
G1 X74.365 Y204.137 E28.18504
G1 X74.173 Y203.236 E28.21568
G1 X74.06 Y202.323 E28.24628
G1 X74.031 Y201.768 E28.26477
G1 X74.022 Y201.436 E28.27581
G1 X74.018 Y201.149 E28.28536
G1 X74.019 Y195.943 E28.45851
G1 X74.029 Y195.24 E28.4819
G1 X74.082 Y194.321 E28.51251
G1 X74.215 Y193.41 E28.54313
G1 X74.426 Y192.514 E28.57375
G1 X74.714 Y191.64 E28.60436
G1 X75.077 Y190.793 E28.63501
G1 X75.512 Y189.982 E28.66562
G1 X76.016 Y189.211 E28.69625
G1 X76.664 Y188.395 E28.73091
G1 X76.928 Y188.095 E28.7442
G1 X78.597 Y186.142 E28.82965
G1 X80.18 Y184.179 E28.91352
G1 X81.72 Y182.155 E28.99811
G1 X83.196 Y180.097 E29.08234
G1 X84.606 Y178.011 E29.16609
G1 X85.959 Y175.877 E29.25013
G1 X87.261 Y173.692 E29.33472
G1 X88.476 Y171.516 E29.41762
G1 X89.656 Y169.254 E29.50247
G1 X90.77 Y166.963 E29.5872
G1 X91.801 Y164.679 E29.67055
G1 X92.78 Y162.336 E29.75501
G1 X93.698 Y159.959 E29.83976
G1 X94.523 Y157.616 E29.92238
G1 X95.306 Y155.177 E30.00758
G1 X96.009 Y152.761 E30.09126
G1 X96.648 Y150.305 E30.17567
G1 X97.214 Y147.847 E30.25956
G1 X97.713 Y145.361 E30.3439
G1 X98.138 Y142.873 E30.42785
G1 X98.495 Y140.367 E30.51204
G1 X98.778 Y137.872 E30.59555
G1 X98.992 Y135.35 E30.67974
G1 X99.135 Y132.829 E30.76372
G1 X99.207 Y130.283 E30.84844
G1 X99.207 Y127.773 E30.93192
G1 X99.135 Y125.227 E31.01663
G1 X98.993 Y122.72 E31.10015
G1 X98.776 Y120.174 E31.18514
G1 X98.493 Y117.685 E31.26846
G1 X98.135 Y115.169 E31.35298
G1 X97.715 Y112.718 E31.43569
G1 X97.012 Y109.298 E31.55182
G1 X79.439 Y31.277 E34.21181
G1 X79.298 Y30.604 E34.23468
G1 X79.149 Y29.695 E34.26532
G1 X79.079 Y28.789 E34.29555
G1 X79.07 Y28.442 E34.30709
G1 X79.063 Y27.83 E34.32745
G1 X79.063 Y26.5 E34.37168
G1 X79.073 Y25.838 E34.3937
G1 X79.127 Y24.919 E34.42432
G1 X79.26 Y24.008 E34.45494
G1 X79.472 Y23.112 E34.48557
G0 F6000 X79.872 Y23.171
G1 F1200 X80.16 Y22.315 E34.51561
G1 X80.523 Y21.488 E34.54565
G1 X80.958 Y20.697 E34.57567
G1 X81.461 Y19.947 E34.60571
G1 X82.028 Y19.244 E34.63575
G1 X82.413 Y18.832 E34.6545
G1 X82.567 Y18.676 E34.66179
G1 X83.229 Y18.062 E34.69182
G1 X83.943 Y17.509 E34.72186
G1 X84.734 Y17.004 E34.75307
G1 X85.535 Y16.586 E34.78312
G1 X86.102 Y16.343 E34.80364
G1 X86.971 Y16 E34.83471
G1 X89.453 Y14.983 E34.92393
G1 X91.748 Y13.964 E35.00744
G1 X94.034 Y12.872 E35.09171
G1 X96.322 Y11.696 E35.17727
G1 X98.507 Y10.497 E35.26017
G1 X98.968 Y10.227 E35.27793
G1 X99.995 Y9.645 E35.3172
G1 X100.8 Y9.235 E35.34724
G1 X101.637 Y8.898 E35.37725
G1 X102.502 Y8.636 E35.40731
G1 X103.386 Y8.451 E35.43735
G1 X104.68 Y8.325 E35.4806
G1 X105.047 Y8.315 E35.49281
G1 X105.581 Y8.309 E35.51057
G1 X106.618 Y8.309 E35.54506
G1 X107.47 Y8.32 E35.5734
G1 X107.757 Y8.328 E35.58295
G1 X108.639 Y8.365 E35.61231
G1 X111.241 Y8.438 E35.69889
G1 X113.775 Y8.438 E35.78317
G1 X116.366 Y8.364 E35.86938
G1 X116.61 Y8.352 E35.87751
G1 X117.51 Y8.32 E35.90746
G1 X118.156 Y8.31 E35.92895
G1 X119.318 Y8.309 E35.9676
G1 X120.182 Y8.321 E35.99634
G1 X121.084 Y8.375 E36.02639
G1 X121.977 Y8.509 E36.05642
G1 X122.855 Y8.721 E36.08647
G1 X123.71 Y9.01 E36.11648
G1 X124.537 Y9.373 E36.14652
G1 X125.119 Y9.684 E36.16847
G1 X125.925 Y10.149 E36.19942
G1 X128.203 Y11.42 E36.28618
G1 X130.485 Y12.611 E36.3718
G1 X132.708 Y13.691 E36.454
G1 X135.039 Y14.744 E36.53907
G1 X138.138 Y16.027 E36.65063
G1 X138.94 Y16.342 E36.67929
G1 X139.765 Y16.709 E36.70932
G1 X140.555 Y17.147 E36.73936
G1 X141.302 Y17.654 E36.76939
G1 X142.002 Y18.225 E36.79943
G1 X142.398 Y18.598 E36.81753
G1 X142.547 Y18.746 E36.82451
G1 X143.159 Y19.41 E36.85455
G1 X143.71 Y20.126 E36.8846
G1 X144.195 Y20.888 E36.91464
G1 X144.611 Y21.689 E36.94466
G1 X144.955 Y22.525 E36.97473
G1 X145.223 Y23.387 E37.00475
G1 X145.414 Y24.27 E37.0348
G1 X145.497 Y24.863 E37.05472
G1 X145.515 Y25.026 E37.06017
G1 X145.576 Y26.014 E37.09309
G1 X145.582 Y26.532 E37.11032
G1 X145.581 Y27.736 E37.15037
G1 X145.571 Y28.438 E37.17372
G1 X145.518 Y29.34 E37.20377
G1 X145.386 Y30.233 E37.2338
G1 X145.175 Y31.111 E37.26383
G1 X144.887 Y31.967 E37.29387
G1 X144.609 Y32.62 E37.31747
G1 X143.984 Y33.951 E37.36638
G1 X143.888 Y34.148 E37.37367
G1 X142.83 Y36.498 E37.45939
G1 X141.847 Y38.849 E37.54414
G1 X140.958 Y41.172 E37.62687
G1 X140.108 Y43.583 E37.7119
G1 X139.329 Y46.015 E37.79683
G1 X138.619 Y48.465 E37.88167
G1 X137.99 Y50.889 E37.96497
G1 X137.413 Y53.403 E38.05076
G1 X136.922 Y55.871 E38.13445
G1 X136.494 Y58.385 E38.21927
G1 X136.142 Y60.866 E38.30262
G1 X135.854 Y63.426 E38.3883
G1 X135.642 Y65.943 E38.47231
G1 X135.502 Y68.441 E38.55552
G1 X135.422 Y72.323 E38.68467
G1 X135.421 Y200.78 E42.95716
G1 X135.411 Y201.509 E42.98141
G1 X135.359 Y202.41 E43.01143
G1 X135.227 Y203.304 E43.04149
G1 X135.016 Y204.182 E43.07152
G1 X134.729 Y205.038 E43.10155
G1 X134.367 Y205.866 E43.13161
G1 X133.934 Y206.658 E43.16163
G1 X133.432 Y207.409 E43.19167
G1 X132.865 Y208.112 E43.22171
G1 X132.424 Y208.581 E43.24312
G1 X132.312 Y208.693 E43.24839
G1 X131.646 Y209.303 E43.27843
G1 X130.929 Y209.852 E43.30847
G1 X130.165 Y210.334 E43.33851
G1 X129.362 Y210.748 E43.36856
G1 X128.526 Y211.088 E43.39858
G1 X127.663 Y211.354 E43.42861
G1 X126.78 Y211.542 E43.45864
G1 X125.444 Y211.675 E43.5033
G1 X125.077 Y211.685 E43.51551
G1 X124.543 Y211.691 E43.53327
G1 X85.179 Y211.69 E44.84252
G1 X84.481 Y211.68 E44.86574
G1 X83.579 Y211.627 E44.89579
G1 X82.686 Y211.495 E44.92581
G1 X81.808 Y211.284 E44.95585
G1 X80.952 Y210.996 E44.98589
G1 X80.125 Y210.634 E45.01591
G1 X79.333 Y210.199 E45.04597
G1 X78.582 Y209.697 E45.07601
