;FLAVOR:Marlin
;TIME:5740
;Filament used: 2.86832m
;Layer height: 0.2
;MINX:29.421
;MINY:16.059
;MINZ:0.2
;MAXX:190.579
;MAXY:203.943
;MAXZ:10
;Generated with Cura_SteamEngine 4.8.0
M140 S60
M105
M190 S60
M104 S200
M105
M109 S200
M82 ;absolute extrusion mode
; Ender 3 Custom Start G-code
G92 E0 ; Reset Extruder
G28 ; Home all axes
G1 Z2.0 F3000 ; Move Z Axis up little to prevent scratching of Heat Bed
G1 X0.1 Y20 Z0.3 F5000.0 ; Move to start position
G1 X0.1 Y200.0 Z0.3 F1500.0 E15 ; Draw the first line
G1 X0.4 Y200.0 Z0.3 F5000.0 ; Move to side a little
G1 X0.4 Y20 Z0.3 F1500.0 E30 ; Draw the second line
G92 E0 ; Reset Extruder
G1 Z2.0 F3000 ; Move Z Axis up little to prevent scratching of Heat Bed
G1 X5 Y20 Z0.3 F5000.0 ; Move over to prevent blob squish
G92 E0
G92 E0
G1 F1500 E-6.5
;LAYER_COUNT:50
;LAYER:0
M107
G0 F6000 X40.343 Y31.366 Z0.2
;TYPE:SKIRT
G1 F1500 E0
G1 F1200 X40.976 Y30.674 E0.03119
G1 X41.665 Y30.038 E0.06238
G1 X42.117 Y29.676 E0.08164
G1 X42.451 Y29.427 E0.0955
G1 X42.931 Y29.083 E0.11514
G1 X43.897 Y28.408 E0.15433
G1 X44.515 Y27.99 E0.17915
G1 X44.747 Y27.838 E0.18837
G1 X45.442 Y27.393 E0.21582
G1 X47.639 Y25.947 E0.3033
G1 X49.677 Y24.521 E0.38603
G1 X51.895 Y22.872 E0.47796
G1 X52.433 Y22.458 E0.50054
G1 X52.708 Y22.254 E0.51192
G1 X53.517 Y21.673 E0.54505
G1 X54.251 Y21.161 E0.57482
G1 X54.865 Y20.742 E0.59954
G1 X55.661 Y20.247 E0.63072
G1 X56.497 Y19.821 E0.66192
G1 X57.366 Y19.469 E0.69311
G1 X58.262 Y19.191 E0.72431
G1 X59.178 Y18.991 E0.75549
G1 X60.099 Y18.87 E0.78639
G1 X60.964 Y18.794 E0.81527
G1 X63.532 Y18.531 E0.90113
G1 X66.031 Y18.204 E0.98496
G1 X68.49 Y17.811 E1.06778
G1 X70.992 Y17.339 E1.15247
G1 X73.436 Y16.805 E1.23567
G1 X74.55 Y16.53 E1.27383
G1 X75.374 Y16.339 E1.30197
G1 X76.296 Y16.166 E1.33317
G1 X77.229 Y16.073 E1.36435
G1 X78.167 Y16.059 E1.39556
G1 X79.102 Y16.126 E1.42673
G1 X80.029 Y16.271 E1.45794
G1 X80.94 Y16.495 E1.48914
G1 X81.828 Y16.796 E1.52033
G1 X82.687 Y17.172 E1.55152
G1 X83.512 Y17.619 E1.58273
G1 X84.295 Y18.135 E1.61391
G1 X85.031 Y18.716 E1.6451
G1 X85.716 Y19.357 E1.6763
G1 X86.343 Y20.054 E1.70749
G1 X86.703 Y20.516 E1.72697
G1 X86.91 Y20.796 E1.73855
G1 X87.077 Y21.027 E1.74803
G1 X87.919 Y22.23 E1.79687
G1 X88.415 Y22.961 E1.82625
G1 X88.908 Y23.759 E1.85745
G1 X89.33 Y24.596 E1.88862
G1 X89.68 Y25.467 E1.91985
G1 X89.954 Y26.364 E1.95104
G1 X90.144 Y27.239 E1.98082
G1 X90.404 Y28.733 E2.03126
G1 X90.455 Y29.045 E2.04177
G1 X90.938 Y31.566 E2.12715
G1 X91.477 Y34.003 E2.21016
G1 X92.077 Y36.401 E2.29238
G1 X92.776 Y38.884 E2.37817
G1 X93.521 Y41.271 E2.46134
G1 X94.336 Y43.644 E2.54479
G1 X95.226 Y46.017 E2.62909
G1 X96.178 Y48.351 E2.71293
G1 X97.184 Y50.628 E2.79572
G1 X98.277 Y52.929 E2.88045
G1 X99.403 Y55.133 E2.96277
G1 X100.632 Y57.382 E3.04801
G1 X101.888 Y59.53 E3.13077
G1 X103.206 Y61.647 E3.21371
G1 X105.247 Y64.691 E3.33561
G1 X188.264 Y183.251 E8.14952
G1 X188.664 Y183.837 E8.17312
G1 X189.159 Y184.634 E8.20432
G1 X189.585 Y185.47 E8.23553
G1 X189.938 Y186.339 E8.26673
G1 X190.215 Y187.234 E8.29789
G1 X190.416 Y188.151 E8.32911
G1 X190.537 Y189.081 E8.36031
G1 X190.579 Y190.018 E8.3915
G1 X190.541 Y190.955 E8.42269
G1 X190.423 Y191.885 E8.45387
G1 X190.226 Y192.802 E8.48507
G1 X189.952 Y193.699 E8.51626
G1 X189.603 Y194.569 E8.54744
G1 X189.18 Y195.407 E8.57866
G1 X188.688 Y196.205 E8.60984
G1 X188.13 Y196.959 E8.64104
G1 X187.509 Y197.662 E8.67224
G1 X186.831 Y198.31 E8.70343
G1 X186.155 Y198.857 E8.73236
G1 X185.864 Y199.074 E8.74443
G1 X185.596 Y199.268 E8.75543
G1 X182.181 Y201.657 E8.89405
G1 X181.616 Y202.041 E8.91677
G1 X180.819 Y202.534 E8.94794
G1 X179.982 Y202.958 E8.97915
G1 X179.112 Y203.309 E9.01035
G1 X178.216 Y203.585 E9.04153
G1 X177.299 Y203.783 E9.07274
G1 X176.369 Y203.903 E9.10393
G1 X175.432 Y203.943 E9.13512
G1 X174.495 Y203.903 E9.16631
G1 X173.565 Y203.783 E9.1975
G1 X172.648 Y203.585 E9.2287
G1 X171.752 Y203.309 E9.25989
G1 X170.882 Y202.958 E9.29109
G1 X170.046 Y202.534 E9.32226
G1 X169.248 Y202.04 E9.35348
G1 X168.496 Y201.48 E9.38467
G1 X167.794 Y200.858 E9.41586
G1 X167.148 Y200.178 E9.44706
G1 X166.642 Y199.555 E9.47375
G1 X166.463 Y199.317 E9.48366
G1 X166.243 Y199.014 E9.49611
G1 X137.29 Y157.666 E11.17498
G1 X135.759 Y155.544 E11.26201
G1 X134.223 Y153.537 E11.34607
G1 X132.665 Y151.617 E11.42831
G1 X130.994 Y149.673 E11.51357
G1 X129.319 Y147.831 E11.59638
G1 X127.547 Y145.991 E11.68134
G1 X125.785 Y144.261 E11.76347
G1 X123.917 Y142.529 E11.8482
G1 X121.981 Y140.832 E11.93383
G1 X121.007 Y140.016 E11.97609
G1 X95.262 Y118.753 E13.08666
G1 X94.41 Y118.029 E13.12385
G1 X94.234 Y117.877 E13.13158
G1 X93.937 Y117.612 E13.14482
G1 X34.89 Y63.87 E15.80038
G1 X34.353 Y63.367 E15.82485
G1 X33.697 Y62.697 E15.85604
G1 X33.129 Y62.012 E15.88563
G1 X32.855 Y61.647 E15.90081
G1 X32.519 Y61.178 E15.92
G1 X31.707 Y60.017 E15.96713
G1 X31.317 Y59.442 E15.99023
G1 X30.825 Y58.644 E16.02141
G1 X30.401 Y57.807 E16.05262
G1 X30.051 Y56.937 E16.08381
G1 X29.776 Y56.04 E16.11502
G1 X29.579 Y55.123 E16.14621
G1 X29.46 Y54.193 E16.1774
G1 X29.421 Y53.256 E16.20859
G1 X29.462 Y52.319 E16.23978
G1 X29.583 Y51.389 E16.27098
G1 X29.782 Y50.472 E16.30218
G1 X30.059 Y49.576 E16.33338
G1 X30.411 Y48.707 E16.36456
G1 X30.836 Y47.871 E16.39575
G1 X31.29 Y47.134 E16.42454
G1 X31.569 Y46.718 E16.4412
G1 X33.032 Y44.47 E16.53041
G1 X34.334 Y42.34 E16.61344
G1 X35.576 Y40.173 E16.69652
G1 X36.775 Y37.938 E16.78087
G1 X37.884 Y35.721 E16.86332
G1 X38.17 Y35.102 E16.886
G1 X38.268 Y34.911 E16.89314
G1 X38.828 Y33.729 E16.93665
G1 X39.265 Y32.9 E16.96781
G1 X39.771 Y32.11 E16.99902
G1 X40.343 Y31.366 E17.03023
G0 F6000 X40.682 Y31.585
G1 F1200 X41.307 Y30.908 E17.06088
G1 X41.988 Y30.289 E17.09149
G1 X42.359 Y29.994 E17.10725
G1 X42.685 Y29.751 E17.12077
G1 X43.16 Y29.411 E17.1402
G1 X44.121 Y28.74 E17.17919
G1 X44.739 Y28.322 E17.204
G1 X44.962 Y28.175 E17.21288
G1 X45.673 Y27.72 E17.24096
G1 X47.883 Y26.266 E17.32895
G1 X49.9 Y24.854 E17.41084
G1 X52.168 Y23.167 E17.50485
G1 X52.677 Y22.776 E17.5262
G1 X52.942 Y22.578 E17.5372
G1 X53.746 Y22.001 E17.57012
G1 X54.476 Y21.491 E17.59973
G1 X55.09 Y21.072 E17.62446
G1 X55.872 Y20.587 E17.65506
G1 X56.694 Y20.171 E17.68571
G1 X57.548 Y19.828 E17.71632
G1 X58.429 Y19.561 E17.74693
G1 X59.33 Y19.371 E17.77756
G1 X60.134 Y19.269 E17.80452
G1 X60.972 Y19.195 E17.8325
G1 X63.588 Y18.927 E17.91996
G1 X66.08 Y18.601 E18.00355
G1 X68.55 Y18.207 E18.08674
G1 X71.08 Y17.729 E18.17238
G1 X73.52 Y17.196 E18.25545
G1 X74.64 Y16.92 E18.29381
G1 X75.464 Y16.729 E18.32195
G1 X76.369 Y16.56 E18.35257
G1 X77.286 Y16.47 E18.38321
G1 X78.206 Y16.461 E18.41381
G1 X79.124 Y16.531 E18.44443
G1 X80.033 Y16.68 E18.47507
G1 X80.925 Y16.908 E18.50569
G1 X81.794 Y17.213 E18.53632
G1 X82.633 Y17.591 E18.56693
G1 X83.436 Y18.041 E18.59755
G1 X84.197 Y18.559 E18.62817
G1 X84.91 Y19.141 E18.65878
G1 X85.57 Y19.783 E18.6894
G1 X86.382 Y20.754 E18.7315
G1 X86.589 Y21.034 E18.74308
G1 X86.749 Y21.257 E18.75221
G1 X87.683 Y22.593 E18.80643
G1 X88.084 Y23.185 E18.83021
G1 X88.567 Y23.969 E18.86084
G1 X88.98 Y24.792 E18.89146
G1 X89.32 Y25.648 E18.9221
G1 X89.584 Y26.53 E18.95272
G1 X89.75 Y27.307 E18.97915
G1 X90.01 Y28.797 E19.02945
G1 X90.067 Y29.148 E19.04128
G1 X90.541 Y31.622 E19.12506
G1 X91.094 Y34.123 E19.21026
G1 X91.69 Y36.502 E19.29183
G1 X92.392 Y38.997 E19.37803
G1 X93.136 Y41.383 E19.46116
G1 X93.966 Y43.798 E19.54609
G1 X94.857 Y46.172 E19.63043
G1 X95.805 Y48.497 E19.71394
G1 X96.808 Y50.769 E19.79655
G1 X97.925 Y53.118 E19.88306
G1 X99.053 Y55.328 E19.96558
G1 X100.279 Y57.569 E20.05054
G1 X101.552 Y59.748 E20.13448
G1 X102.868 Y61.861 E20.21727
G1 X104.92 Y64.921 E20.33982
G1 X187.934 Y183.477 E25.15356
G1 X188.334 Y184.063 E25.17716
G1 X188.819 Y184.845 E25.20777
G1 X189.235 Y185.667 E25.23841
G1 X189.578 Y186.521 E25.26902
G1 X189.846 Y187.402 E25.29965
G1 X190.036 Y188.303 E25.33027
G1 X190.147 Y189.217 E25.3609
G1 X190.179 Y190.137 E25.39151
G1 X190.13 Y191.056 E25.42212
G1 X190.002 Y191.968 E25.45275
G1 X189.795 Y192.865 E25.48337
G1 X189.512 Y193.741 E25.51399
G1 X189.153 Y194.589 E25.54462
G1 X188.722 Y195.402 E25.57522
G1 X188.222 Y196.175 E25.60584
G1 X187.657 Y196.902 E25.63647
G1 X187.031 Y197.577 E25.66709
G1 X186.349 Y198.196 E25.69772
G1 X185.916 Y198.536 E25.71603
G1 X185.625 Y198.753 E25.7281
G1 X185.367 Y198.94 E25.7387
G1 X181.956 Y201.326 E25.87715
G1 X181.391 Y201.71 E25.89988
G1 X180.608 Y202.194 E25.93049
G1 X179.786 Y202.608 E25.9611
G1 X178.931 Y202.949 E25.99172
G1 X178.049 Y203.215 E26.02236
G1 X177.148 Y203.403 E26.05297
G1 X176.234 Y203.513 E26.08359
G1 X175.314 Y203.542 E26.11421
G1 X174.395 Y203.492 E26.14482
G1 X173.483 Y203.362 E26.17546
G1 X172.586 Y203.154 E26.20608
G1 X171.711 Y202.868 E26.2367
G1 X170.864 Y202.508 E26.26731
G1 X170.051 Y202.075 E26.29795
G1 X169.279 Y201.574 E26.32856
G1 X168.553 Y201.007 E26.3592
G1 X167.88 Y200.38 E26.38979
G1 X167.263 Y199.696 E26.42043
G1 X166.962 Y199.314 E26.4366
G1 X166.783 Y199.076 E26.44651
G1 X166.571 Y198.785 E26.45848
G1 X137.598 Y157.408 E28.13853
G1 X136.089 Y155.317 E28.22429
G1 X134.532 Y153.283 E28.30949
G1 X132.964 Y151.35 E28.39228
G1 X131.311 Y149.426 E28.47664
G1 X129.603 Y147.549 E28.56105
G1 X127.851 Y145.729 E28.64507
G1 X126.036 Y143.948 E28.72965
G1 X124.189 Y142.235 E28.81343
G1 X122.268 Y140.551 E28.8984
G1 X121.262 Y139.708 E28.94205
G1 X95.399 Y118.346 E30.05775
G1 X94.669 Y117.725 E30.08962
G1 X94.304 Y117.404 E30.10579
G1 X35.275 Y63.681 E32.76048
G1 X34.627 Y63.075 E32.78999
G1 X33.983 Y62.417 E32.82061
G1 X33.447 Y61.77 E32.84856
G1 X33.18 Y61.414 E32.86336
G1 X32.847 Y60.948 E32.88241
G1 X32.038 Y59.792 E32.92934
G1 X31.648 Y59.217 E32.95244
G1 X31.165 Y58.433 E32.98307
G1 X30.752 Y57.611 E33.01367
G1 X30.411 Y56.755 E33.04431
G1 X30.147 Y55.874 E33.0749
G1 X29.959 Y54.972 E33.10555
G1 X29.851 Y54.058 E33.13616
G1 X29.822 Y53.138 E33.16678
G1 X29.873 Y52.219 E33.19739
G1 X30.004 Y51.307 E33.22803
G1 X30.213 Y50.411 E33.25863
G1 X30.499 Y49.536 E33.28925
G1 X30.861 Y48.689 E33.31989
G1 X31.294 Y47.877 E33.3505
G1 X31.622 Y47.357 E33.37094
G1 X31.925 Y46.905 E33.38904
G1 X33.364 Y44.695 E33.47676
G1 X34.67 Y42.557 E33.56008
G1 X35.926 Y40.366 E33.64408
G1 X37.127 Y38.127 E33.72859
G1 X38.253 Y35.875 E33.81233
G1 X38.533 Y35.27 E33.8345
G1 X38.635 Y35.074 E33.84185
G1 X39.19 Y33.9 E33.88504
G1 X39.619 Y33.086 E33.91565
G1 X40.118 Y32.312 E33.94628
G1 X40.682 Y31.585 E33.97688
G0 F6000 X41.021 Y31.804
G1 F1200 X41.638 Y31.144 E34.00693
G1 X42.601 Y30.313 E34.04924
G1 X42.918 Y30.076 E34.0624
G1 X43.389 Y29.738 E34.08168
G1 X44.345 Y29.071 E34.12045
G1 X44.963 Y28.653 E34.14527
G1 X45.178 Y28.512 E34.15382
G1 X45.869 Y28.07 E34.1811
G1 X48.086 Y26.611 E34.26937
G1 X50.162 Y25.158 E34.35366
G1 X52.369 Y23.516 E34.44515
G1 X52.92 Y23.093 E34.46825
G1 X53.175 Y22.903 E34.47883
G1 X53.975 Y22.329 E34.51158
G1 X54.702 Y21.822 E34.54106
G1 X55.316 Y21.403 E34.56578
G1 X56.083 Y20.927 E34.5958
G1 X56.89 Y20.522 E34.62584
G1 X57.73 Y20.189 E34.65589
G1 X58.595 Y19.931 E34.68591
G1 X59.48 Y19.752 E34.71594
G1 X60.169 Y19.667 E34.73903
G1 X61.05 Y19.589 E34.76845
G1 X63.609 Y19.327 E34.85401
G1 X66.158 Y18.994 E34.93951
G1 X68.622 Y18.6 E35.0225
G1 X71.161 Y18.121 E35.10844
G1 X73.596 Y17.589 E35.19134
G1 X74.731 Y17.309 E35.23022
G1 X75.555 Y17.118 E35.25835
G1 X76.443 Y16.954 E35.28839
G1 X77.342 Y16.868 E35.31842
G1 X78.245 Y16.862 E35.34846
G1 X79.145 Y16.937 E35.3785
G1 X80.035 Y17.09 E35.40853
G1 X80.908 Y17.322 E35.43858
G1 X81.757 Y17.63 E35.46862
G1 X82.575 Y18.011 E35.49863
G1 X83.357 Y18.464 E35.52869
G1 X84.095 Y18.984 E35.55871
G1 X84.784 Y19.567 E35.58873
G1 X85.42 Y20.209 E35.61879
G1 X86.06 Y20.991 E35.6524
G1 X86.267 Y21.271 E35.66398
G1 X86.421 Y21.486 E35.67278
G1 X87.352 Y22.818 E35.72683
G1 X87.753 Y23.41 E35.75061
G1 X88.226 Y24.179 E35.78064
G1 X88.629 Y24.987 E35.81067
G1 X88.959 Y25.828 E35.84072
G1 X89.213 Y26.695 E35.87077
G1 X89.356 Y27.376 E35.89391
G1 X89.615 Y28.862 E35.94408
G1 X89.673 Y29.216 E35.95601
G1 X90.151 Y31.713 E36.04057
G1 X90.7 Y34.193 E36.12505
G1 X91.303 Y36.602 E36.20765
G1 X92.011 Y39.119 E36.29461
G1 X92.752 Y41.495 E36.37739
G1 X93.589 Y43.932 E36.46309
G1 X94.484 Y46.316 E36.54779
G1 X95.428 Y48.631 E36.63094
G1 X96.472 Y50.996 E36.71693
G1 X97.551 Y53.265 E36.80049
G1 X98.704 Y55.523 E36.88482
G1 X99.926 Y57.757 E36.96951
G1 X101.211 Y59.956 E37.05422
G1 X102.534 Y62.081 E37.13748
G1 X104.593 Y65.151 E37.26043
G1 X187.603 Y183.703 E42.07399
G1 X188.003 Y184.289 E42.09759
G1 X188.479 Y185.056 E42.12761
G1 X188.885 Y185.863 E42.15766
G1 X189.218 Y186.702 E42.18768
G1 X189.475 Y187.568 E42.21773
G1 X189.655 Y188.453 E42.24776
G1 X189.756 Y189.351 E42.27782
G1 X189.777 Y190.254 E42.30786
G1 X189.718 Y191.155 E42.33789
G1 X189.579 Y192.047 E42.36792
G1 X189.363 Y192.924 E42.39796
G1 X189.069 Y193.778 E42.428
G1 X188.701 Y194.603 E42.45805
G1 X188.262 Y195.392 E42.48808
G1 X187.754 Y196.139 E42.51812
G1 X187.183 Y196.838 E42.54814
G1 X186.551 Y197.484 E42.5782
G1 X185.676 Y198.216 E42.61614
G1 X185.385 Y198.433 E42.62822
G1 X185.137 Y198.612 E42.63839
G1 X181.732 Y200.995 E42.77662
G1 X181.167 Y201.379 E42.79934
G1 X180.398 Y201.853 E42.82939
G1 X179.59 Y202.257 E42.85943
G1 X178.75 Y202.589 E42.88948
G1 X177.884 Y202.844 E42.9195
G1 X176.999 Y203.022 E42.94953
G1 X176.101 Y203.121 E42.97957
G1 X175.198 Y203.14 E43.00962
G1 X174.297 Y203.08 E43.03965
G1 X173.405 Y202.939 E43.06969
G1 X172.528 Y202.721 E43.09974
G1 X171.675 Y202.425 E43.12977
G1 X170.851 Y202.056 E43.1598
G1 X170.063 Y201.615 E43.18984
G1 X169.317 Y201.106 E43.21987
G1 X168.619 Y200.533 E43.24991
G1 X167.974 Y199.9 E43.27997
G1 X167.281 Y199.074 E43.31583
G1 X167.102 Y198.836 E43.32573
G1 X166.899 Y198.556 E43.33724
G1 X137.939 Y157.197 E45.01654
G1 X136.399 Y155.063 E45.10407
G1 X134.862 Y153.055 E45.18818
G1 X133.262 Y151.082 E45.27267
G1 X131.609 Y149.16 E45.35698
G1 X129.888 Y147.267 E45.44207
G1 X128.136 Y145.448 E45.52607
G1 X126.323 Y143.669 E45.61056
G1 X124.459 Y141.94 E45.69512
G1 X122.505 Y140.228 E45.78152
G1 X121.517 Y139.4 E45.8244
G1 X95.772 Y118.137 E46.93497
G1 X94.928 Y117.42 E46.9718
G1 X94.765 Y117.279 E46.97897
G1 X94.475 Y117.02 E46.9919
G1 X35.437 Y63.286 E49.64706
G1 X34.9 Y62.783 E49.67153
G1 X34.269 Y62.137 E49.70157
G1 X33.764 Y61.527 E49.72791
G1 X33.677 Y61.413 E49.73267
G1 X33.505 Y61.18 E49.74231
G1 X33.174 Y60.719 E49.76118
G1 X32.37 Y59.568 E49.80788
G1 X31.98 Y58.993 E49.83099
G1 X31.506 Y58.223 E49.86106
G1 X31.103 Y57.415 E49.89109
G1 X30.772 Y56.575 E49.92112
G1 X30.518 Y55.709 E49.95114
G1 X30.34 Y54.823 E49.9812
G1 X30.242 Y53.925 E50.01124
G1 X30.224 Y53.022 E50.04128
G1 X30.286 Y52.121 E50.07132
G1 X30.427 Y51.229 E50.10136
G1 X30.646 Y50.353 E50.13139
G1 X30.942 Y49.5 E50.16142
G1 X31.312 Y48.676 E50.19146
G1 X31.954 Y47.58 E50.23371
G1 X32.249 Y47.141 E50.2513
G1 X33.693 Y44.922 E50.33936
G1 X35.025 Y42.743 E50.4243
G1 X36.283 Y40.547 E50.50847
G1 X37.481 Y38.316 E50.5927
G1 X38.61 Y36.056 E50.67672
G1 X38.896 Y35.438 E50.69937
G1 X38.996 Y35.246 E50.70657
G1 X39.551 Y34.072 E50.74976
G1 X39.974 Y33.273 E50.77983
G1 X40.465 Y32.515 E50.80987
G1 X41.021 Y31.804 E50.83989
G0 F6000 X63.192 Y33.954
G1 F1200 X63.506 Y33.921 E50.85039
G1 X63.28 Y34.079 E50.85956
G1 X63.192 Y33.954 E50.86465
G0 F6000 X63.063 Y33.562
G1 F1200 X63.397 Y33.545 E50.87577
G1 X63.62 Y33.487 E50.88344
G1 X66.014 Y32.653 E50.96775
G1 X63.182 Y34.636 E51.08274
G1 X62.278 Y33.346 E51.13513
G1 X62.355 Y33.378 E51.13791
G1 X62.735 Y33.499 E51.15117
G1 X63.063 Y33.562 E51.16228
G0 F6000 X63.135 Y33.165
G1 F1200 X63.489 Y33.109 E51.1742
G1 X68.606 Y31.327 E51.35442
G1 X63.084 Y35.193 E51.57862
G1 X60.466 Y31.456 E51.73038
G1 X60.908 Y31.146 E51.74833
G1 X61.066 Y31.371 E51.75748
G1 X61.968 Y32.627 E51.80891
G1 X62.163 Y32.831 E51.81829
G1 X62.477 Y32.997 E51.83011
G1 X62.857 Y33.118 E51.84337
G1 X63.135 Y33.165 E51.85275
G0 F6000 X63.194 Y32.764
G1 F1200 X63.357 Y32.732 E51.85827
G1 X71.195 Y30.002 E52.13433
G1 X62.985 Y35.75 E52.46767
G1 X59.908 Y31.358 E52.64603
