;FLAVOR:Marlin
;TIME:9260
;Filament used: 4.21725m
;Layer height: 0.2
;MINX:33.5
;MINY:16.464
;MINZ:0.2
;MAXX:186.502
;MAXY:203.534
;MAXZ:61.4
;Generated with Cura_SteamEngine 4.8.0
M140 S60
M105
M190 S60
M104 S200
M105
M109 S200
M82 ;absolute extrusion mode
; Ender 3 Custom Start G-code
G92 E0 ; Reset Extruder
G28 ; Home all axes
G1 Z2.0 F3000 ; Move Z Axis up little to prevent scratching of Heat Bed
G1 X0.1 Y20 Z0.3 F5000.0 ; Move to start position
G1 X0.1 Y200.0 Z0.3 F1500.0 E15 ; Draw the first line
G1 X0.4 Y200.0 Z0.3 F5000.0 ; Move to side a little
G1 X0.4 Y20 Z0.3 F1500.0 E30 ; Draw the second line
G92 E0 ; Reset Extruder
G1 Z2.0 F3000 ; Move Z Axis up little to prevent scratching of Heat Bed
G1 X5 Y20 Z0.3 F5000.0 ; Move over to prevent blob squish
G92 E0
G92 E0
G1 F1500 E-6.5
;LAYER_COUNT:307
;LAYER:0
M107
G0 F6000 X35.546 Y24.208 Z0.2
;TYPE:SKIRT
G1 F1500 E0
G1 F1200 X36.073 Y23.529 E0.02859
G1 X36.272 Y23.292 E0.03888
G1 X36.476 Y23.055 E0.04928
G1 X38.688 Y20.569 E0.15996
G1 X39.151 Y20.06 E0.18284
G1 X39.811 Y19.394 E0.21403
G1 X40.525 Y18.786 E0.24522
G1 X41.289 Y18.242 E0.27642
G1 X42.096 Y17.764 E0.30761
G1 X42.941 Y17.357 E0.33881
G1 X43.818 Y17.024 E0.37001
G1 X44.719 Y16.766 E0.40118
G1 X45.64 Y16.586 E0.43239
G1 X46.572 Y16.485 E0.46357
G1 X47.51 Y16.464 E0.49478
G1 X48.446 Y16.523 E0.52597
G1 X49.374 Y16.662 E0.55718
G1 X50.286 Y16.878 E0.58835
G1 X51.177 Y17.172 E0.61956
G1 X52.039 Y17.541 E0.65075
G1 X52.867 Y17.982 E0.68195
G1 X53.654 Y18.491 E0.71312
G1 X54.117 Y18.838 E0.73237
G1 X54.752 Y19.341 E0.75931
G1 X56.762 Y20.887 E0.84365
G1 X58.805 Y22.365 E0.92752
G1 X60.916 Y23.806 E1.01253
G1 X62.987 Y25.134 E1.09435
G1 X65.188 Y26.461 E1.17984
G1 X67.353 Y27.683 E1.26252
G1 X69.563 Y28.849 E1.34563
G1 X71.851 Y29.975 E1.43045
G1 X74.127 Y31.016 E1.51369
G1 X76.45 Y31.999 E1.59759
G1 X78.785 Y32.913 E1.68099
G1 X81.186 Y33.773 E1.76581
G1 X83.546 Y34.545 E1.8484
G1 X85.988 Y35.267 E1.93309
G1 X88.41 Y35.909 E2.01643
G1 X90.845 Y36.483 E2.09964
G1 X93.334 Y36.993 E2.18415
G1 X95.787 Y37.425 E2.26699
G1 X98.297 Y37.795 E2.35137
G1 X100.774 Y38.087 E2.43433
G1 X103.326 Y38.317 E2.51955
G1 X105.795 Y38.469 E2.60183
G1 X108.318 Y38.552 E2.68579
G1 X110.843 Y38.564 E2.76977
G1 X113.363 Y38.505 E2.85361
G1 X115.86 Y38.375 E2.93677
G1 X118.403 Y38.171 E3.02162
G1 X120.856 Y37.904 E3.10369
G1 X123.396 Y37.555 E3.18897
G1 X125.862 Y37.144 E3.27212
G1 X128.333 Y36.66 E3.35587
G1 X130.738 Y36.119 E3.43786
G1 X133.224 Y35.485 E3.52319
G1 X135.657 Y34.79 E3.60735
G1 X138.049 Y34.034 E3.69078
G1 X140.432 Y33.205 E3.7747
G1 X142.766 Y32.318 E3.85775
G1 X145.098 Y31.356 E3.94165
G1 X147.39 Y30.335 E4.0251
G1 X149.701 Y29.224 E4.11039
G1 X151.889 Y28.096 E4.19226
G1 X154.124 Y26.863 E4.27716
G1 X156.266 Y25.6 E4.35987
G1 X158.431 Y24.24 E4.44491
G1 X160.504 Y22.853 E4.52786
G1 X162.556 Y21.397 E4.61155
G1 X164.585 Y19.867 E4.69607
G1 X165.884 Y18.84 E4.75115
G1 X166.644 Y18.29 E4.78235
G1 X167.448 Y17.807 E4.81354
G1 X168.29 Y17.394 E4.84474
G1 X169.164 Y17.055 E4.87592
G1 X170.064 Y16.791 E4.90711
G1 X170.984 Y16.605 E4.93833
G1 X171.915 Y16.497 E4.9695
G1 X172.853 Y16.47 E5.00071
G1 X173.789 Y16.522 E5.03189
G1 X174.718 Y16.655 E5.06311
G1 X175.632 Y16.865 E5.0943
G1 X176.524 Y17.153 E5.12547
G1 X177.389 Y17.516 E5.15668
G1 X178.22 Y17.951 E5.18787
G1 X179.011 Y18.455 E5.21907
G1 X179.756 Y19.025 E5.25027
G1 X180.449 Y19.656 E5.28144
G1 X180.78 Y19.998 E5.29727
G1 X181.4 Y20.668 E5.32763
G1 X181.543 Y20.826 E5.33472
G1 X183.389 Y22.902 E5.42712
G1 X183.828 Y23.41 E5.44945
G1 X184.41 Y24.145 E5.48063
G1 X184.928 Y24.927 E5.51183
G1 X185.377 Y25.75 E5.54301
G1 X185.755 Y26.609 E5.57422
G1 X186.057 Y27.496 E5.60539
G1 X186.284 Y28.406 E5.63658
G1 X186.432 Y29.333 E5.66781
G1 X186.5 Y30.268 E5.69899
G1 X186.488 Y31.206 E5.73019
G1 X186.397 Y32.139 E5.76137
G1 X186.227 Y33.061 E5.79255
G1 X185.978 Y33.966 E5.82377
G1 X185.653 Y34.846 E5.85497
G1 X185.255 Y35.695 E5.88616
G1 X184.786 Y36.507 E5.91734
G1 X184.249 Y37.276 E5.94854
G1 X183.649 Y37.996 E5.97971
G1 X183.042 Y38.614 E6.00852
G1 X182.789 Y38.852 E6.02008
G1 X182.564 Y39.058 E6.03022
G1 X177.64 Y43.439 E6.24943
G1 X175.706 Y45.209 E6.33663
G1 X173.9 Y46.957 E6.42023
G1 X172.151 Y48.751 E6.50356
G1 X170.428 Y50.619 E6.58808
G1 X168.784 Y52.508 E6.67137
G1 X167.186 Y54.453 E6.7551
G1 X165.631 Y56.456 E6.83944
G1 X164.172 Y58.45 E6.92162
G1 X162.711 Y60.57 E7.00725
G1 X161.36 Y62.654 E7.08986
G1 X160.047 Y64.814 E7.17393
G1 X158.803 Y66.993 E7.25738
G1 X157.614 Y69.224 E7.34147
G1 X156.495 Y71.471 E7.42496
G1 X155.445 Y73.739 E7.50808
G1 X154.44 Y76.082 E7.59288
G1 X153.521 Y78.403 E7.6759
G1 X152.658 Y80.774 E7.75983
G1 X151.863 Y83.17 E7.84379
G1 X151.143 Y85.566 E7.927
G1 X150.484 Y88.004 E8.011
G1 X149.896 Y90.457 E8.0949
G1 X149.375 Y92.933 E8.17905
G1 X148.929 Y95.398 E8.26237
G1 X148.552 Y97.876 E8.34574
G1 X148.244 Y100.388 E8.42991
G1 X148.008 Y102.886 E8.51337
G1 X147.842 Y105.399 E8.59713
G1 X147.747 Y107.921 E8.68107
G1 X147.724 Y110.414 E8.76399
G1 X147.772 Y112.942 E8.84809
G1 X147.891 Y115.482 E8.93266
G1 X148.079 Y117.947 E9.01489
G1 X148.343 Y120.481 E9.09963
G1 X148.674 Y122.973 E9.18324
G1 X149.072 Y125.438 E9.26629
G1 X149.548 Y127.926 E9.35054
G1 X150.092 Y130.394 E9.43459
G1 X150.693 Y132.8 E9.51708
G1 X151.384 Y135.263 E9.60216
G1 X152.13 Y137.661 E9.68569
G1 X152.941 Y140.026 E9.76884
G1 X153.827 Y142.392 E9.85287
G1 X154.776 Y144.724 E9.93661
G1 X155.791 Y147.026 E10.02029
G1 X156.867 Y149.292 E10.10372
G1 X158.017 Y151.547 E10.18791
G1 X159.23 Y153.771 E10.27217
G1 X160.477 Y155.908 E10.35447
G1 X161.832 Y158.086 E10.43978
G1 X163.208 Y160.164 E10.52267
G1 X164.655 Y162.222 E10.60635
G1 X166.153 Y164.228 E10.68962
G1 X167.729 Y166.221 E10.77413
G1 X169.339 Y168.14 E10.85744
G1 X171.026 Y170.039 E10.94193
G1 X172.715 Y171.839 E11.02402
G1 X174.518 Y173.652 E11.10907
G1 X176.343 Y175.385 E11.19277
G1 X177.617 Y176.54 E11.24997
G1 X182.412 Y180.808 E11.46348
G1 X182.932 Y181.284 E11.48692
G1 X183.596 Y181.946 E11.51811
G1 X184.202 Y182.663 E11.54933
G1 X184.744 Y183.428 E11.58052
G1 X185.219 Y184.237 E11.61172
G1 X185.623 Y185.083 E11.6429
G1 X185.954 Y185.96 E11.67408
G1 X186.209 Y186.863 E11.70529
G1 X186.386 Y187.784 E11.73648
G1 X186.484 Y188.717 E11.76768
G1 X186.502 Y189.655 E11.79889
G1 X186.44 Y190.59 E11.83005
G1 X186.299 Y191.518 E11.86127
G1 X186.079 Y192.429 E11.89244
G1 X185.782 Y193.319 E11.92365
G1 X185.411 Y194.18 E11.95483
G1 X184.968 Y195.007 E11.98604
G1 X184.456 Y195.792 E12.01721
G1 X183.903 Y196.502 E12.04714
G1 X183.667 Y196.781 E12.05929
G1 X183.488 Y196.988 E12.0684
G1 X181.328 Y199.415 E12.17646
G1 X180.841 Y199.949 E12.2005
G1 X180.18 Y200.615 E12.23171
G1 X179.464 Y201.221 E12.2629
G1 X178.7 Y201.765 E12.2941
G1 X177.892 Y202.241 E12.32529
G1 X177.047 Y202.647 E12.35647
G1 X176.17 Y202.98 E12.38767
G1 X175.268 Y203.236 E12.41886
G1 X174.347 Y203.415 E12.45006
G1 X173.415 Y203.515 E12.48124
G1 X172.477 Y203.534 E12.51244
G1 X171.541 Y203.474 E12.54364
G1 X170.613 Y203.335 E12.57485
G1 X169.701 Y203.117 E12.60604
G1 X168.811 Y202.822 E12.63722
G1 X167.949 Y202.452 E12.66842
G1 X167.122 Y202.01 E12.69961
G1 X166.335 Y201.499 E12.73082
G1 X165.886 Y201.162 E12.74949
G1 X165.301 Y200.699 E12.7743
G1 X163.256 Y199.126 E12.86012
G1 X161.207 Y197.64 E12.9443
G1 X159.131 Y196.224 E13.02788
G1 X157.033 Y194.877 E13.11081
G1 X154.857 Y193.565 E13.19532
G1 X152.669 Y192.33 E13.27888
G1 X150.429 Y191.146 E13.36315
G1 X148.172 Y190.034 E13.44684
G1 X145.909 Y188.999 E13.5296
G1 X143.587 Y188.015 E13.61348
G1 X141.225 Y187.09 E13.69785
G1 X138.858 Y186.241 E13.78149
G1 X136.465 Y185.458 E13.86523
G1 X134.084 Y184.753 E13.94782
G1 X131.6 Y184.093 E14.03331
G1 X129.165 Y183.519 E14.11652
G1 X126.697 Y183.013 E14.20031
G1 X124.238 Y182.579 E14.28336
G1 X121.762 Y182.213 E14.36661
G1 X119.239 Y181.914 E14.45111
G1 X116.71 Y181.686 E14.53557
G1 X114.234 Y181.533 E14.61808
G1 X111.701 Y181.448 E14.70237
G1 X109.185 Y181.436 E14.78606
G1 X106.661 Y181.495 E14.87003
G1 X104.165 Y181.624 E14.95315
G1 X101.66 Y181.824 E15.03674
G1 X99.151 Y182.096 E15.12068
G1 X96.62 Y182.443 E15.20564
G1 X94.204 Y182.844 E15.2871
G1 X91.68 Y183.338 E15.37264
G1 X89.27 Y183.88 E15.4548
G1 X86.808 Y184.507 E15.5393
G1 X84.366 Y185.203 E15.62376
G1 X82 Y185.951 E15.70629
G1 X79.583 Y186.791 E15.79139
G1 X77.261 Y187.671 E15.87399
G1 X74.907 Y188.642 E15.95868
G1 X72.648 Y189.648 E16.04093
G1 X70.337 Y190.757 E16.12618
G1 X68.116 Y191.902 E16.20929
G1 X65.922 Y193.112 E16.29263
G1 X63.739 Y194.399 E16.37691
G1 X61.604 Y195.738 E16.46073
G1 X59.53 Y197.125 E16.54372
G1 X57.462 Y198.593 E16.62807
G1 X55.451 Y200.107 E16.71179
G1 X54.122 Y201.158 E16.76815
G1 X53.362 Y201.708 E16.79935
G1 X52.558 Y202.192 E16.83056
G1 X51.716 Y202.605 E16.86175
G1 X50.842 Y202.945 E16.89295
G1 X49.942 Y203.209 E16.92414
G1 X49.023 Y203.396 E16.95533
G1 X48.091 Y203.503 E16.98654
G1 X47.154 Y203.531 E17.01771
G1 X46.218 Y203.479 E17.04889
G1 X45.289 Y203.347 E17.0801
G1 X44.375 Y203.137 E17.11129
G1 X43.482 Y202.85 E17.14249
G1 X42.617 Y202.487 E17.17369
G1 X41.786 Y202.053 E17.20487
G1 X40.995 Y201.549 E17.23607
G1 X40.25 Y200.979 E17.26727
G1 X39.556 Y200.348 E17.29847
G1 X39.214 Y199.995 E17.31481
G1 X38.563 Y199.29 E17.34673
G1 X36.733 Y197.235 E17.43825
G1 X36.17 Y196.584 E17.46688
G1 X35.588 Y195.849 E17.49806
G1 X35.071 Y195.066 E17.52927
G1 X34.622 Y194.242 E17.56048
G1 X34.245 Y193.384 E17.59165
G1 X33.943 Y192.496 E17.62285
G1 X33.718 Y191.585 E17.65406
G1 X33.571 Y190.659 E17.68524
G1 X33.503 Y189.724 E17.71642
G1 X33.515 Y188.786 E17.74762
G1 X33.607 Y187.853 E17.7788
G1 X33.778 Y186.931 E17.80999
G1 X34.027 Y186.026 E17.84121
G1 X34.353 Y185.147 E17.87239
G1 X34.752 Y184.298 E17.90359
G1 X35.222 Y183.486 E17.9348
G1 X35.759 Y182.718 E17.96597
G1 X36.36 Y181.997 E17.99719
G1 X36.935 Y181.411 E18.02449
G1 X37.18 Y181.179 E18.03572
G1 X37.432 Y180.947 E18.04711
G1 X42.397 Y176.531 E18.26811
G1 X44.278 Y174.808 E18.35295
G1 X46.117 Y173.028 E18.43808
G1 X47.851 Y171.249 E18.52071
G1 X49.574 Y169.381 E18.60523
G1 X51.218 Y167.492 E18.68852
G1 X52.816 Y165.547 E18.77225
G1 X54.371 Y163.544 E18.85658
G1 X55.83 Y161.55 E18.93876
G1 X57.291 Y159.43 E19.0244
G1 X58.642 Y157.346 E19.107
G1 X59.955 Y155.186 E19.19108
G1 X61.199 Y153.007 E19.27453
G1 X62.388 Y150.776 E19.35861
G1 X63.507 Y148.529 E19.4421
G1 X64.557 Y146.261 E19.52523
G1 X65.562 Y143.918 E19.61002
G1 X66.481 Y141.597 E19.69305
G1 X67.344 Y139.226 E19.77697
G1 X68.139 Y136.83 E19.86093
G1 X68.859 Y134.434 E19.94415
G1 X69.518 Y131.996 E20.02814
G1 X70.106 Y129.543 E20.11204
G1 X70.627 Y127.067 E20.1962
G1 X71.073 Y124.602 E20.27952
G1 X71.45 Y122.124 E20.36288
G1 X71.758 Y119.612 E20.44706
G1 X71.994 Y117.114 E20.53051
G1 X72.16 Y114.601 E20.61428
G1 X72.255 Y112.079 E20.69822
G1 X72.278 Y109.586 E20.78114
G1 X72.23 Y107.058 E20.86524
G1 X72.111 Y104.518 E20.94981
G1 X71.923 Y102.053 E21.03203
G1 X71.659 Y99.518 E21.1168
G1 X71.327 Y97.021 E21.20059
G1 X70.926 Y94.539 E21.28421
G1 X70.46 Y92.101 E21.36676
G1 X69.91 Y89.606 E21.45174
G1 X69.307 Y87.19 E21.53456
G1 X68.624 Y84.755 E21.61868
G1 X67.875 Y82.35 E21.70246
G1 X67.05 Y79.944 E21.78705
G1 X66.178 Y77.616 E21.86974
G1 X65.226 Y75.276 E21.95376
G1 X64.211 Y72.974 E22.03744
G1 X63.135 Y70.708 E22.12087
G1 X61.979 Y68.441 E22.20551
G1 X60.784 Y66.251 E22.28849
G1 X59.518 Y64.081 E22.37205
G1 X58.17 Y61.914 E22.45693
G1 X56.806 Y59.853 E22.53913
G1 X55.334 Y57.761 E22.62421
G1 X53.846 Y55.767 E22.70696
G1 X52.276 Y53.783 E22.79111
G1 X50.663 Y51.86 E22.87459
G1 X48.976 Y49.961 E22.95907
G1 X47.287 Y48.161 E23.04117
G1 X45.484 Y46.348 E23.12621
G1 X43.659 Y44.615 E23.20992
G1 X42.362 Y43.439 E23.26815
G1 X37.59 Y39.192 E23.48062
G1 X37.07 Y38.716 E23.50407
G1 X36.406 Y38.054 E23.53526
G1 X35.8 Y37.337 E23.56648
G1 X35.258 Y36.572 E23.59766
G1 X34.783 Y35.763 E23.62887
G1 X34.379 Y34.917 E23.66005
G1 X34.048 Y34.04 E23.69123
G1 X33.793 Y33.137 E23.72243
G1 X33.616 Y32.216 E23.75363
G1 X33.518 Y31.283 E23.78483
G1 X33.5 Y30.345 E23.81603
G1 X33.562 Y29.41 E23.8472
G1 X33.703 Y28.482 E23.87842
G1 X33.923 Y27.571 E23.90959
G1 X34.22 Y26.681 E23.9408
G1 X34.591 Y25.82 E23.97198
G1 X35.034 Y24.993 E24.00318
G1 X35.546 Y24.208 E24.03435
G0 F6000 X36.042 Y24.209
G1 F1200 X36.379 Y23.786 E24.05234
G1 X36.578 Y23.549 E24.06264
G1 X36.775 Y23.321 E24.07266
G1 X38.984 Y20.838 E24.18319
G1 X39.447 Y20.329 E24.20608
G1 X40.095 Y19.676 E24.23668
G1 X40.798 Y19.081 E24.26731
G1 X41.55 Y18.55 E24.29793
G1 X42.345 Y18.085 E24.32856
G1 X43.177 Y17.692 E24.35917
G1 X44.04 Y17.372 E24.38978
G1 X44.928 Y17.128 E24.42041
G1 X45.834 Y16.962 E24.45104
G1 X46.75 Y16.876 E24.48164
G1 X47.671 Y16.869 E24.51228
G1 X48.589 Y16.942 E24.54291
G1 X49.497 Y17.095 E24.57353
G1 X50.388 Y17.325 E24.60414
G1 X51.256 Y17.633 E24.63477
G1 X52.094 Y18.014 E24.66539
G1 X52.895 Y18.467 E24.696
G1 X53.868 Y19.152 E24.73557
G1 X54.466 Y19.625 E24.76093
G1 X56.529 Y21.212 E24.8475
G1 X58.59 Y22.704 E24.93213
G1 X60.655 Y24.114 E25.01529
G1 X62.811 Y25.496 E25.10047
G1 X64.949 Y26.785 E25.1835
G1 X67.15 Y28.027 E25.26756
G1 X69.421 Y29.225 E25.35296
G1 X71.673 Y30.334 E25.43645
G1 X73.971 Y31.384 E25.52048
G1 X76.31 Y32.375 E25.60497
G1 X78.641 Y33.287 E25.68823
G1 X81.032 Y34.143 E25.77269
G1 X83.446 Y34.933 E25.85717
G1 X85.845 Y35.642 E25.94038
G1 X88.322 Y36.299 E26.02561
G1 X90.784 Y36.879 E26.10974
G1 X93.249 Y37.384 E26.19343
G1 X95.731 Y37.821 E26.27725
G1 X98.229 Y38.189 E26.36123
G1 X100.763 Y38.489 E26.4461
G1 X103.267 Y38.714 E26.52972
G1 X105.791 Y38.869 E26.61383
G1 X108.303 Y38.952 E26.69742
G1 X110.851 Y38.964 E26.78217
G1 X113.358 Y38.905 E26.86557
G1 X115.912 Y38.772 E26.95064
G1 X118.407 Y38.572 E27.03389
G1 X120.957 Y38.294 E27.1192
G1 X123.411 Y37.957 E27.20159
G1 X125.933 Y37.537 E27.28663
G1 X128.426 Y37.049 E27.37112
G1 X130.853 Y36.503 E27.45386
G1 X133.327 Y35.872 E27.53878
G1 X135.75 Y35.18 E27.62259
G1 X138.185 Y34.41 E27.70753
G1 X140.568 Y33.581 E27.79145
G1 X142.911 Y32.691 E27.87481
G1 X145.247 Y31.728 E27.95885
G1 X147.589 Y30.683 E28.04415
G1 X149.836 Y29.604 E28.12705
G1 X152.087 Y28.443 E28.21129
G1 X154.34 Y27.2 E28.29687
G1 X156.477 Y25.94 E28.37939
G1 X158.619 Y24.594 E28.46353
G1 X160.735 Y23.179 E28.54819
G1 X162.799 Y21.714 E28.63238
G1 X164.841 Y20.175 E28.71742
G1 X166.132 Y19.154 E28.77217
G1 X166.879 Y18.614 E28.80282
G1 X167.669 Y18.142 E28.83343
G1 X168.497 Y17.74 E28.86405
G1 X169.357 Y17.412 E28.89466
G1 X170.243 Y17.159 E28.9253
G1 X171.147 Y16.984 E28.95593
G1 X172.062 Y16.889 E28.98653
G1 X172.983 Y16.873 E29.01716
G1 X173.901 Y16.937 E29.04777
G1 X174.811 Y17.08 E29.07841
G1 X175.704 Y17.302 E29.10901
G1 X176.575 Y17.6 E29.13963
G1 X177.417 Y17.973 E29.17026
G1 X178.223 Y18.418 E29.20088
G1 X178.988 Y18.931 E29.23152
G1 X179.705 Y19.508 E29.26213
G1 X180.486 Y20.27 E29.29842
G1 X181.106 Y20.94 E29.32878
G1 X181.244 Y21.092 E29.33561
G1 X183.086 Y23.163 E29.4278
G1 X183.525 Y23.671 E29.45013
G1 X184.096 Y24.393 E29.48074
G1 X184.603 Y25.162 E29.51138
G1 X185.04 Y25.972 E29.54199
G1 X185.406 Y26.817 E29.57262
G1 X185.697 Y27.69 E29.60323
G1 X185.911 Y28.586 E29.63387
G1 X186.047 Y29.496 E29.66447
G1 X186.103 Y30.415 E29.69509
G1 X186.08 Y31.336 E29.72573
G1 X185.976 Y32.25 E29.75633
G1 X185.794 Y33.153 E29.78697
G1 X185.533 Y34.036 E29.81759
G1 X185.198 Y34.893 E29.8482
G1 X184.789 Y35.718 E29.87882
G1 X184.31 Y36.504 E29.90944
G1 X183.764 Y37.246 E29.94008
G1 X183.157 Y37.938 E29.97069
G1 X182.768 Y38.323 E29.9889
G1 X182.515 Y38.561 E30.00045
G1 X182.298 Y38.759 E30.01022
G1 X177.372 Y43.142 E30.22953
G1 X175.441 Y44.91 E30.31661
G1 X173.601 Y46.691 E30.40178
G1 X171.871 Y48.465 E30.48419
G1 X170.134 Y50.349 E30.56942
G1 X168.473 Y52.258 E30.65359
G1 X166.876 Y54.199 E30.73719
G1 X165.308 Y56.221 E30.82229
G1 X163.836 Y58.233 E30.90521
G1 X162.39 Y60.332 E30.98998
G1 X161.016 Y62.45 E31.07395
G1 X159.717 Y64.587 E31.15713
G1 X158.446 Y66.813 E31.24239
G1 X157.253 Y69.051 E31.32674
G1 X156.138 Y71.289 E31.4099
