;FLAVOR:Marlin
;TIME:2407
;Filament used: 1.27461m
;Layer height: 0.2
;MINX:73.6
;MINY:68.647
;MINZ:0.2
;MAXX:146.4
;MAXY:151.353
;MAXZ:12.6
;Generated with Cura_SteamEngine 4.8.0
M140 S60
M105
M190 S60
M104 S200
M105
M109 S200
M82 ;absolute extrusion mode
; Ender 3 Custom Start G-code
G92 E0 ; Reset Extruder
G28 ; Home all axes
G1 Z2.0 F3000 ; Move Z Axis up little to prevent scratching of Heat Bed
G1 X0.1 Y20 Z0.3 F5000.0 ; Move to start position
G1 X0.1 Y200.0 Z0.3 F1500.0 E15 ; Draw the first line
G1 X0.4 Y200.0 Z0.3 F5000.0 ; Move to side a little
G1 X0.4 Y20 Z0.3 F1500.0 E30 ; Draw the second line
G92 E0 ; Reset Extruder
G1 Z2.0 F3000 ; Move Z Axis up little to prevent scratching of Heat Bed
G1 X5 Y20 Z0.3 F5000.0 ; Move over to prevent blob squish
G92 E0
G92 E0
G1 F1500 E-6.5
;LAYER_COUNT:63
;LAYER:0
M107
G0 F6000 X76.872 Y79.315 Z0.2
;TYPE:SKIRT
G1 F1500 E0
G1 F1200 X77.557 Y78.675 E0.03118
G1 X78.294 Y78.095 E0.06237
G1 X79.078 Y77.58 E0.09357
G1 X79.903 Y77.134 E0.12476
G1 X80.763 Y76.759 E0.15597
G1 X81.275 Y76.576 E0.17405
G1 X82.268 Y76.25 E0.20881
G1 X83.088 Y75.992 E0.23741
G1 X85.45 Y75.177 E0.32051
G1 X87.841 Y74.275 E0.40551
G1 X90.166 Y73.321 E0.48909
G1 X92.454 Y72.307 E0.57233
G1 X94.718 Y71.226 E0.65578
G1 X96.595 Y70.271 E0.72582
G1 X97.294 Y69.906 E0.75205
G1 X98.143 Y69.508 E0.78324
G1 X99.023 Y69.184 E0.81443
G1 X100.006 Y68.918 E0.8483
G1 X100.929 Y68.754 E0.87948
G1 X102.081 Y68.66 E0.91792
G1 X102.399 Y68.651 E0.9285
G1 X102.71 Y68.647 E0.93884
G1 X104.213 Y68.647 E0.98883
G1 X105.078 Y68.658 E1.01761
G1 X105.39 Y68.667 E1.02799
G1 X106.125 Y68.698 E1.05246
G1 X108.767 Y68.773 E1.14036
G1 X111.255 Y68.773 E1.22312
G1 X113.856 Y68.699 E1.30966
G1 X114.509 Y68.669 E1.3314
G1 X115.086 Y68.652 E1.3506
G1 X115.41 Y68.647 E1.36138
G1 X117.069 Y68.648 E1.41656
G1 X117.772 Y68.658 E1.43994
G1 X118.709 Y68.711 E1.47116
G1 X119.637 Y68.844 E1.50234
G1 X120.551 Y69.056 E1.53354
G1 X121.443 Y69.344 E1.56472
G1 X122.546 Y69.824 E1.60473
G1 X123.063 Y70.085 E1.62399
G1 X124.704 Y70.942 E1.68557
G1 X126.971 Y72.043 E1.76939
G1 X129.279 Y73.086 E1.85363
G1 X131.607 Y74.059 E1.93755
G1 X133.98 Y74.975 E2.02215
G1 X136.289 Y75.788 E2.10357
G1 X138.388 Y76.463 E2.1769
G1 X138.829 Y76.612 E2.19239
G1 X139.703 Y76.952 E2.22358
G1 X140.545 Y77.366 E2.25479
G1 X141.348 Y77.85 E2.28597
G1 X142.108 Y78.4 E2.31717
G1 X143.091 Y79.279 E2.36103
G1 X143.203 Y79.392 E2.36632
G1 X143.834 Y80.086 E2.39752
G1 X144.404 Y80.831 E2.42872
G1 X144.908 Y81.622 E2.45992
G1 X145.343 Y82.453 E2.49111
G1 X145.706 Y83.317 E2.52228
G1 X145.994 Y84.21 E2.55349
G1 X146.204 Y85.124 E2.58468
G1 X146.337 Y86.053 E2.6159
G1 X146.384 Y86.765 E2.63963
G1 X146.394 Y87.133 E2.65187
G1 X146.4 Y87.649 E2.66904
G1 X146.399 Y88.886 E2.71018
G1 X146.389 Y89.588 E2.73353
G1 X146.336 Y90.524 E2.76471
G1 X146.203 Y91.452 E2.79589
G1 X145.991 Y92.366 E2.8271
G1 X145.703 Y93.259 E2.85831
G1 X145.351 Y94.097 E2.88854
G1 X144.925 Y95.006 E2.92193
G1 X143.863 Y97.359 E3.00779
G1 X142.871 Y99.725 E3.09312
G1 X141.97 Y102.068 E3.17661
G1 X141.148 Y104.397 E3.25876
G1 X140.359 Y106.85 E3.34446
G1 X139.67 Y109.218 E3.42649
G1 X139.028 Y111.687 E3.51134
G1 X138.47 Y114.1 E3.59371
G1 X137.741 Y117.87 E3.72143
G1 X133.632 Y141.682 E4.52512
G1 X133.507 Y142.351 E4.54776
G1 X133.295 Y143.265 E4.57896
G1 X133.007 Y144.157 E4.61014
G1 X132.644 Y145.022 E4.64134
G1 X132.208 Y145.853 E4.67255
G1 X131.703 Y146.643 E4.70374
G1 X131.132 Y147.387 E4.73493
G1 X130.501 Y148.081 E4.76613
G1 X129.812 Y148.717 E4.79732
G1 X129.072 Y149.293 E4.82851
G1 X128.285 Y149.804 E4.85971
G1 X127.458 Y150.246 E4.8909
G1 X126.596 Y150.616 E4.9221
G1 X125.706 Y150.911 E4.95329
G1 X124.794 Y151.129 E4.98448
G1 X123.866 Y151.268 E5.01569
G1 X122.927 Y151.329 E5.04698
G1 X121.887 Y151.351 E5.08158
G1 X121.654 Y151.353 E5.08933
G1 X97.847 Y151.352 E5.88115
G1 X97.161 Y151.342 E5.90397
G1 X96.224 Y151.288 E5.93519
G1 X95.296 Y151.155 E5.96637
G1 X94.382 Y150.943 E5.99758
G1 X93.49 Y150.654 E6.02876
G1 X92.626 Y150.291 E6.05993
G1 X91.795 Y149.854 E6.09116
G1 X91.005 Y149.349 E6.12235
G1 X90.261 Y148.778 E6.15354
G1 X89.568 Y148.146 E6.18474
G1 X88.932 Y147.458 E6.2159
G1 X88.356 Y146.717 E6.24711
G1 X87.846 Y145.93 E6.27831
G1 X87.404 Y145.103 E6.30949
G1 X87.035 Y144.241 E6.34068
G1 X86.74 Y143.35 E6.3719
G1 X86.524 Y142.446 E6.40281
G1 X86.314 Y141.368 E6.43934
G1 X86.271 Y141.135 E6.44722
G1 X82.237 Y117.748 E7.23656
G1 X81.777 Y115.291 E7.3197
G1 X81.245 Y112.831 E7.40341
G1 X80.64 Y110.374 E7.48757
G1 X79.964 Y107.93 E7.57191
G1 X79.23 Y105.544 E7.65494
G1 X78.421 Y103.152 E7.73893
G1 X77.547 Y100.793 E7.8226
G1 X76.605 Y98.454 E7.90647
G1 X75.611 Y96.173 E7.98922
G1 X75.208 Y95.32 E8.0206
G1 X74.607 Y94.006 E8.06866
G1 X74.253 Y93.138 E8.09984
G1 X73.975 Y92.242 E8.13104
G1 X73.774 Y91.326 E8.16223
G1 X73.652 Y90.396 E8.19343
G1 X73.616 Y89.802 E8.21322
G1 X73.606 Y89.417 E8.22603
G1 X73.6 Y88.874 E8.24409
G1 X73.601 Y87.656 E8.2846
G1 X73.611 Y86.974 E8.30729
G1 X73.665 Y86.037 E8.33851
G1 X73.798 Y85.109 E8.36969
G1 X74.01 Y84.195 E8.40089
G1 X74.299 Y83.303 E8.43208
G1 X74.663 Y82.439 E8.46326
G1 X75.099 Y81.609 E8.49445
G1 X75.604 Y80.818 E8.52566
G1 X76.175 Y80.074 E8.55685
G1 X76.762 Y79.427 E8.58591
G1 X76.872 Y79.315 E8.59113
G0 F6000 X77.157 Y79.595
G1 F1200 X77.83 Y78.967 E8.62175
G1 X78.555 Y78.4 E8.65236
G1 X79.327 Y77.897 E8.683
G1 X80.139 Y77.464 E8.71361
G1 X81.4 Y76.956 E8.75883
G1 X82.246 Y76.677 E8.78846
G1 X83.19 Y76.38 E8.82137
G1 X85.627 Y75.539 E8.90712
G1 X87.955 Y74.66 E8.98988
G1 X90.301 Y73.698 E9.07422
G1 X92.639 Y72.661 E9.15928
G1 X94.924 Y71.571 E9.24349
G1 X96.729 Y70.652 E9.31086
G1 X97.479 Y70.261 E9.33899
G1 X98.313 Y69.871 E9.36961
G1 X99.177 Y69.554 E9.40022
G1 X100.093 Y69.308 E9.43176
G1 X100.999 Y69.148 E9.46236
G1 X102.092 Y69.06 E9.49884
G1 X102.41 Y69.051 E9.50942
G1 X102.71 Y69.047 E9.5194
G1 X104.213 Y69.047 E9.56939
G1 X105.072 Y69.058 E9.59796
G1 X105.373 Y69.067 E9.60797
G1 X106.096 Y69.098 E9.63204
G1 X108.756 Y69.173 E9.72055
G1 X111.266 Y69.173 E9.80403
G1 X113.842 Y69.1 E9.88975
G1 X114.305 Y69.077 E9.90516
G1 X115.098 Y69.052 E9.93155
G1 X115.41 Y69.047 E9.94193
G1 X117.064 Y69.048 E9.99694
G1 X117.767 Y69.058 E10.02033
G1 X118.686 Y69.111 E10.05094
G1 X119.597 Y69.244 E10.08157
G1 X120.493 Y69.455 E10.11218
G1 X121.367 Y69.743 E10.14279
G1 X122.367 Y70.181 E10.1791
G1 X122.878 Y70.439 E10.19814
G1 X124.55 Y71.312 E10.26087
G1 X126.797 Y72.404 E10.34397
G1 X129.109 Y73.448 E10.42834
G1 X131.457 Y74.43 E10.51299
G1 X133.829 Y75.346 E10.59756
G1 X136.194 Y76.178 E10.68095
G1 X138.265 Y76.844 E10.7533
G1 X138.7 Y76.991 E10.76858
G1 X139.558 Y77.325 E10.7992
G1 X140.383 Y77.733 E10.82981
G1 X141.17 Y78.211 E10.86044
G1 X141.912 Y78.756 E10.89106
G1 X142.807 Y79.561 E10.93109
G1 X142.919 Y79.674 E10.93639
G1 X143.538 Y80.355 E10.967
G1 X144.095 Y81.088 E10.99762
G1 X144.587 Y81.866 E11.02823
G1 X145.01 Y82.684 E11.05886
G1 X145.36 Y83.536 E11.0895
G1 X145.635 Y84.414 E11.1201
G1 X145.832 Y85.314 E11.15074
G1 X145.951 Y86.227 E11.18136
G1 X145.984 Y86.778 E11.19972
G1 X145.994 Y87.139 E11.21173
G1 X146 Y87.649 E11.2287
G1 X145.999 Y88.88 E11.26964
G1 X145.989 Y89.582 E11.29299
G1 X145.936 Y90.501 E11.32361
G1 X145.803 Y91.412 E11.35423
G1 X145.592 Y92.308 E11.38485
G1 X145.304 Y93.183 E11.41549
G1 X144.989 Y93.927 E11.44236
G1 X144.57 Y94.821 E11.4752
G1 X143.488 Y97.219 E11.5627
G1 X142.492 Y99.593 E11.64832
G1 X141.607 Y101.895 E11.73035
G1 X140.762 Y104.289 E11.81479
G1 X139.983 Y106.711 E11.89941
G1 X139.285 Y109.111 E11.98254
G1 X138.634 Y111.61 E12.06843
G1 X138.079 Y114.018 E12.15062
G1 X137.351 Y117.776 E12.27794
G1 X133.239 Y141.609 E13.08234
G1 X133.114 Y142.278 E13.10498
G1 X132.905 Y143.175 E13.13561
G1 X132.62 Y144.05 E13.16622
G1 X132.26 Y144.897 E13.19683
G1 X131.828 Y145.71 E13.22745
G1 X131.327 Y146.482 E13.25806
G1 X130.76 Y147.208 E13.2887
G1 X130.133 Y147.882 E13.31931
G1 X129.45 Y148.499 E13.34993
G1 X128.715 Y149.055 E13.38058
G1 X127.936 Y149.544 E13.41117
G1 X127.117 Y149.964 E13.44179
G1 X126.264 Y150.312 E13.47243
G1 X125.384 Y150.584 E13.50306
G1 X124.485 Y150.779 E13.53366
G1 X123.571 Y150.895 E13.5643
G1 X122.918 Y150.929 E13.58605
G1 X121.878 Y150.951 E13.62065
G1 X121.654 Y150.953 E13.6281
G1 X97.852 Y150.952 E14.41976
G1 X97.166 Y150.942 E14.44257
G1 X96.247 Y150.888 E14.47319
G1 X95.336 Y150.756 E14.50381
G1 X94.44 Y150.544 E14.53443
G1 X93.566 Y150.256 E14.56504
G1 X92.72 Y149.892 E14.59567
G1 X91.909 Y149.457 E14.62628
G1 X91.138 Y148.953 E14.65692
G1 X90.415 Y148.384 E14.68752
G1 X89.743 Y147.755 E14.71813
G1 X89.128 Y147.069 E14.74878
G1 X88.576 Y146.333 E14.77938
G1 X88.089 Y145.551 E14.81002
G1 X87.672 Y144.731 E14.84061
G1 X87.327 Y143.877 E14.87125
G1 X87.058 Y142.996 E14.90189
G1 X86.917 Y142.37 E14.92323
G1 X86.707 Y141.292 E14.95976
G1 X86.665 Y141.067 E14.96737
G1 X82.631 Y117.68 E15.75671
G1 X82.166 Y115.197 E15.84073
G1 X81.638 Y112.756 E15.9238
G1 X81.022 Y110.253 E16.00953
G1 X80.355 Y107.844 E16.09267
G1 X79.605 Y105.404 E16.17757
G1 X78.799 Y103.021 E16.26124
G1 X77.922 Y100.653 E16.34523
G1 X76.978 Y98.312 E16.42918
G1 X75.974 Y96.008 E16.51277
G1 X75.571 Y95.154 E16.54418
G1 X74.97 Y93.84 E16.59224
G1 X74.624 Y92.987 E16.62286
G1 X74.353 Y92.107 E16.65348
G1 X74.16 Y91.207 E16.6841
G1 X74.045 Y90.293 E16.71474
G1 X74.016 Y89.789 E16.73153
G1 X74.006 Y89.413 E16.74404
G1 X74 Y88.874 E16.76197
G1 X74.001 Y87.662 E16.80228
G1 X74.011 Y86.98 E16.82496
G1 X74.065 Y86.06 E16.85562
G1 X74.198 Y85.15 E16.8862
G1 X74.409 Y84.253 E16.91685
G1 X74.698 Y83.379 E16.94747
G1 X75.061 Y82.533 E16.97809
G1 X75.496 Y81.722 E17.0087
G1 X76 Y80.952 E17.03931
G1 X76.569 Y80.228 E17.06993
G1 X77.047 Y79.707 E17.09345
G1 X77.157 Y79.595 E17.09867
G0 F6000 X77.443 Y79.876
G1 F1200 X78.104 Y79.26 E17.12872
G1 X78.816 Y78.705 E17.15875
G1 X79.575 Y78.216 E17.18878
G1 X80.374 Y77.795 E17.21882
G1 X81.525 Y77.336 E17.26003
G1 X82.508 Y77.013 E17.29445
G1 X83.336 Y76.753 E17.32331
G1 X85.751 Y75.919 E17.40829
G1 X88.112 Y75.028 E17.49222
G1 X90.466 Y74.063 E17.57684
G1 X92.809 Y73.024 E17.66209
G1 X95.068 Y71.946 E17.74534
G1 X96.917 Y71.005 E17.81434
G1 X97.664 Y70.615 E17.84237
G1 X98.482 Y70.233 E17.8724
G1 X99.331 Y69.925 E17.90244
G1 X100.179 Y69.699 E17.93162
G1 X101.069 Y69.542 E17.96168
G1 X102.103 Y69.46 E17.99618
G1 X102.421 Y69.451 E18.00676
G1 X102.71 Y69.447 E18.01638
G1 X104.213 Y69.447 E18.06637
G1 X105.067 Y69.458 E18.09477
G1 X105.356 Y69.466 E18.10439
G1 X106.138 Y69.499 E18.13042
G1 X108.745 Y69.573 E18.21716
G1 X111.277 Y69.573 E18.30138
G1 X113.874 Y69.5 E18.38779
G1 X114.533 Y69.468 E18.40973
G1 X115.11 Y69.451 E18.42893
G1 X115.41 Y69.447 E18.43891
G1 X117.058 Y69.448 E18.49373
G1 X117.761 Y69.458 E18.51711
G1 X118.663 Y69.511 E18.54716
G1 X119.556 Y69.643 E18.57719
G1 X120.434 Y69.854 E18.60722
G1 X121.29 Y70.142 E18.63726
G1 X122.188 Y70.539 E18.66992
G1 X122.693 Y70.794 E18.68873
G1 X124.369 Y71.669 E18.75162
G1 X126.607 Y72.756 E18.83437
G1 X128.969 Y73.823 E18.92057
G1 X131.294 Y74.796 E19.0044
G1 X133.689 Y75.72 E19.08978
G1 X136.076 Y76.56 E19.17394
G1 X138.313 Y77.281 E19.25212
G1 X138.571 Y77.369 E19.26118
G1 X139.412 Y77.698 E19.29122
G1 X140.22 Y78.1 E19.32124
G1 X140.99 Y78.573 E19.35129
G1 X141.715 Y79.111 E19.38132
G1 X142.522 Y79.843 E19.41756
G1 X142.634 Y79.956 E19.42285
G1 X143.241 Y80.625 E19.45289
G1 X143.786 Y81.345 E19.48293
G1 X144.266 Y82.11 E19.51297
G1 X144.676 Y82.915 E19.54301
G1 X145.013 Y83.753 E19.57305
G1 X145.274 Y84.617 E19.60307
G1 X145.458 Y85.501 E19.63311
G1 X145.584 Y86.792 E19.67625
G1 X145.594 Y87.144 E19.68796
G1 X145.6 Y87.649 E19.70476
G1 X145.599 Y88.874 E19.7455
G1 X145.589 Y89.576 E19.76885
G1 X145.536 Y90.478 E19.79891
G1 X145.404 Y91.371 E19.82893
G1 X145.193 Y92.249 E19.85896
G1 X144.905 Y93.105 E19.889
G1 X144.627 Y93.758 E19.91261
G1 X144.167 Y94.74 E19.94868
G1 X143.125 Y97.048 E20.0329
G1 X142.131 Y99.42 E20.11844
G1 X141.229 Y101.767 E20.20207
G1 X140.38 Y104.17 E20.28683
G1 X139.601 Y106.592 E20.37145
G1 X138.89 Y109.036 E20.45611
G1 X138.26 Y111.457 E20.53932
G1 X137.682 Y113.963 E20.62485
G1 X136.962 Y117.682 E20.75085
G1 X132.871 Y141.396 E21.55123
G1 X132.72 Y142.204 E21.57857
G1 X132.515 Y143.084 E21.60862
G1 X132.233 Y143.942 E21.63866
G1 X131.877 Y144.772 E21.6687
G1 X131.448 Y145.566 E21.69871
G1 X130.951 Y146.32 E21.72875
G1 X130.388 Y147.027 E21.75881
G1 X129.766 Y147.681 E21.78883
G1 X129.088 Y148.278 E21.81888
G1 X128.36 Y148.812 E21.8489
G1 X127.588 Y149.28 E21.87893
G1 X126.777 Y149.678 E21.90898
G1 X125.934 Y150.003 E21.93903
G1 X125.066 Y150.251 E21.96905
G1 X124.179 Y150.422 E21.9991
G1 X122.91 Y150.529 E22.04145
G1 X121.87 Y150.551 E22.07605
G1 X121.654 Y150.553 E22.08324
G1 X97.858 Y150.552 E22.8747
G1 X97.172 Y150.542 E22.89751
G1 X96.271 Y150.489 E22.92753
G1 X95.377 Y150.356 E22.9576
G1 X94.499 Y150.145 E22.98763
G1 X93.643 Y149.857 E23.01767
G1 X92.816 Y149.494 E23.04771
G1 X92.025 Y149.06 E23.07772
G1 X91.274 Y148.557 E23.10778
G1 X90.571 Y147.99 E23.13782
G1 X89.921 Y147.363 E23.16786
G1 X89.329 Y146.681 E23.19789
G1 X88.8 Y145.95 E23.22791
G1 X88.338 Y145.174 E23.25794
G1 X87.945 Y144.36 E23.28801
G1 X87.627 Y143.515 E23.31804
G1 X87.309 Y142.293 E23.36003
G1 X87.099 Y141.215 E23.39656
G1 X87.059 Y140.999 E23.40387
G1 X83.025 Y117.612 E24.19321
G1 X82.558 Y115.118 E24.2776
G1 X82.024 Y112.648 E24.36165
G1 X81.416 Y110.18 E24.44619
G1 X80.737 Y107.725 E24.53091
G1 X79.983 Y105.274 E24.6162
G1 X79.178 Y102.891 E24.69986
G1 X78.292 Y100.501 E24.78464
G1 X77.345 Y98.151 E24.86891
G1 X76.339 Y95.842 E24.95268
G1 X75.935 Y94.988 E24.9841
G1 X75.334 Y93.674 E25.03216
G1 X74.995 Y92.836 E25.06223
G1 X74.732 Y91.973 E25.09223
G1 X74.546 Y91.089 E25.12228
G1 X74.416 Y89.775 E25.1662
G1 X74.406 Y89.408 E25.17841
G1 X74.4 Y88.874 E25.19617
G1 X74.401 Y87.667 E25.23631
G1 X74.411 Y86.985 E25.259
G1 X74.464 Y86.084 E25.28902
G1 X74.597 Y85.191 E25.31905
G1 X74.808 Y84.313 E25.34908
G1 X75.096 Y83.457 E25.37912
G1 X75.459 Y82.63 E25.40916
G1 X75.893 Y81.838 E25.4392
G1 X76.396 Y81.088 E25.46923
G1 X76.963 Y80.385 E25.49927
G1 X77.333 Y79.988 E25.51732
G1 X77.443 Y79.876 E25.52254
G0 F6000 X100.043 Y84.813
G1 F1200 X100.18 Y84.774 E25.52728
G1 X100.18 Y84.813 E25.52858
G1 X100.043 Y84.813 E25.53313
G0 F6000 X100.58 Y85.213
G1 F1200 X97.165 Y85.213 E25.64672
G1 X100.58 Y84.245 E25.76478
G1 X100.58 Y85.213 E25.79697
G0 F6000 X100.98 Y85.613
G1 F1200 X94.287 Y85.613 E26.01958
G1 X100.98 Y83.716 E26.25096
G1 X100.98 Y85.613 E26.31406
G0 F6000 X101.38 Y86.013
G1 F1200 X91.409 Y86.013 E26.64569
G1 X101.38 Y83.186 E26.9904
G1 X101.38 Y86.013 E27.08443
G1 F1500 E20.58443
G0 F6000 X88.38 Y86.352
G0 X87.537 Y87.11
G1 F1500 E27.08443
G1 F1200 X87.538 Y89.353 E27.15903
G1 X84.8 Y89.353 E27.2501
G1 X84.8 Y87.213 E27.32127
G1 X87.149 Y87.213 E27.3994
G1 X87.204 Y87.205 E27.40125
G1 X87.537 Y87.11 E27.41277
G0 F6000 X87.137 Y87.613
G1 F1200 X87.138 Y88.953 E27.45734
G1 X85.2 Y88.953 E27.52179
G1 X85.2 Y87.613 E27.56636
G1 X87.137 Y87.613 E27.63079
G0 F6000 X86.737 Y88.013
G1 F1200 X86.738 Y88.553 E27.64875
G1 X85.6 Y88.553 E27.6866
G1 X85.6 Y88.013 E27.70456
G1 X86.737 Y88.013 E27.74237
G1 F1500 E21.24237
G0 F6000 X88.38 Y86.352
G0 X102.223 Y78.986
G0 X117.777 Y78.986
G0 X118.281 Y79.49
G0 X118.62 Y86.013
G1 F1500 E27.74237
G1 F1200 X118.62 Y83.186 E27.8364
G1 X128.591 Y86.013 E28.18111
G1 X118.62 Y86.013 E28.51275
G0 F6000 X119.02 Y85.613
G1 F1200 X119.02 Y83.716 E28.57584
G1 X125.713 Y85.613 E28.80722
G1 X119.02 Y85.613 E29.02983
G0 F6000 X119.42 Y85.213
G1 F1200 X119.42 Y84.245 E29.06203
G1 X122.835 Y85.213 E29.18008
G1 X119.42 Y85.213 E29.29367
G0 F6000 X119.82 Y84.813
G1 F1200 X119.82 Y84.774 E29.29496
G1 X119.957 Y84.813 E29.2997
G1 X119.82 Y84.813 E29.30426
G1 F1500 E22.80426
G0 F6000 X131.62 Y86.352
G0 X132.463 Y87.11
G1 F1500 E29.30426
G1 F1200 X132.796 Y87.205 E29.31578
G1 X132.851 Y87.213 E29.31763
G1 X135.2 Y87.213 E29.39575
G1 X135.2 Y89.353 E29.46693
G1 X132.462 Y89.353 E29.558
G1 X132.463 Y87.11 E29.6326
