;FLAVOR:Marlin
;TIME:4198
;Filament used: 2.43845m
;Layer height: 0.2
;MINX:71.822
;MINY:70.565
;MINZ:0.2
;MAXX:148.178
;MAXY:148.125
;MAXZ:14
;Generated with Cura_SteamEngine 4.8.0
M140 S60
M105
M190 S60
M104 S200
M105
M109 S200
M82 ;absolute extrusion mode
; Ender 3 Custom Start G-code
G92 E0 ; Reset Extruder
G28 ; Home all axes
G1 Z2.0 F3000 ; Move Z Axis up little to prevent scratching of Heat Bed
G1 X0.1 Y20 Z0.3 F5000.0 ; Move to start position
G1 X0.1 Y200.0 Z0.3 F1500.0 E15 ; Draw the first line
G1 X0.4 Y200.0 Z0.3 F5000.0 ; Move to side a little
G1 X0.4 Y20 Z0.3 F1500.0 E30 ; Draw the second line
G92 E0 ; Reset Extruder
G1 Z2.0 F3000 ; Move Z Axis up little to prevent scratching of Heat Bed
G1 X5 Y20 Z0.3 F5000.0 ; Move over to prevent blob squish
G92 E0
G92 E0
G1 F1500 E-6.5
;LAYER_COUNT:70
;LAYER:0
M107
G0 F6000 X75.374 Y75.997 Z0.2
;TYPE:SKIRT
G1 F1500 E0
G1 F1200 X77.233 Y74.139 E0.08742
G1 X77.72 Y73.668 E0.10995
G1 X78.421 Y73.045 E0.14114
G1 X79.173 Y72.485 E0.17233
G1 X79.97 Y71.99 E0.20353
G1 X80.806 Y71.565 E0.23473
G1 X81.675 Y71.213 E0.26591
G1 X82.571 Y70.936 E0.2971
G1 X83.488 Y70.737 E0.32831
G1 X84.418 Y70.616 E0.35951
G1 X84.996 Y70.581 E0.37877
G1 X85.381 Y70.571 E0.39157
G1 X85.924 Y70.565 E0.40964
G1 X128.756 Y70.57 E1.83423
G1 X129.87 Y70.565 E1.87129
G1 X134.088 Y70.566 E2.01158
G1 X134.79 Y70.576 E2.03493
G1 X135.726 Y70.629 E2.06611
G1 X136.654 Y70.762 E2.09729
G1 X137.568 Y70.974 E2.1285
G1 X138.461 Y71.262 E2.15971
G1 X139.325 Y71.626 E2.19089
G1 X140.156 Y72.062 E2.2221
G1 X140.946 Y72.567 E2.25329
G1 X141.69 Y73.137 E2.28446
G1 X142.114 Y73.51 E2.30324
G1 X142.266 Y73.651 E2.31014
G1 X142.467 Y73.842 E2.31936
G1 X142.725 Y74.096 E2.3314
G1 X144.591 Y75.963 E2.4192
G1 X145.049 Y76.435 E2.44107
G1 X145.673 Y77.135 E2.47226
G1 X146.235 Y77.886 E2.50346
G1 X146.731 Y78.682 E2.53465
G1 X147.157 Y79.517 E2.56583
G1 X147.511 Y80.386 E2.59704
G1 X147.789 Y81.282 E2.62824
G1 X147.99 Y82.198 E2.65943
G1 X148.089 Y82.888 E2.68262
G1 X148.107 Y83.051 E2.68807
G1 X148.172 Y84.124 E2.72383
G1 X148.178 Y84.667 E2.74189
G1 X148.177 Y94.872 E3.08131
G1 X148.166 Y95.579 E3.10482
G1 X148.111 Y96.515 E3.13601
G1 X147.92 Y97.725 E3.17675
G1 X147.65 Y98.979 E3.21942
G1 X147.131 Y101.564 E3.30711
G1 X146.714 Y104.01 E3.38964
G1 X146.356 Y106.53 E3.47429
G1 X146.075 Y109.01 E3.55731
G1 X145.859 Y111.556 E3.64229
G1 X145.721 Y113.979 E3.72301
G1 X145.638 Y117.938 E3.85472
G1 X145.638 Y129.731 E4.24695
G1 X145.632 Y131.431 E4.3035
G1 X145.638 Y132.206 E4.32927
G1 X145.637 Y133.077 E4.35824
G1 X145.627 Y133.779 E4.3816
G1 X145.574 Y134.715 E4.41278
G1 X145.441 Y135.643 E4.44396
G1 X145.229 Y136.557 E4.47516
G1 X144.941 Y137.45 E4.50637
G1 X144.577 Y138.314 E4.53755
G1 X144.141 Y139.145 E4.56877
G1 X143.636 Y139.935 E4.59995
G1 X143.066 Y140.679 E4.63113
G1 X142.406 Y141.4 E4.66364
G1 X142.293 Y141.513 E4.66895
G1 X141.602 Y142.147 E4.70014
G1 X140.86 Y142.721 E4.73134
G1 X140.071 Y143.228 E4.76254
G1 X139.243 Y143.667 E4.79371
G1 X138.379 Y144.034 E4.82493
G1 X137.488 Y144.326 E4.85611
G1 X136.575 Y144.54 E4.8873
G1 X135.217 Y144.713 E4.93284
G1 X134.146 Y144.78 E4.96853
G1 X133.248 Y144.825 E4.99843
G1 X130.741 Y145.023 E5.08208
G1 X128.232 Y145.292 E5.166
G1 X125.741 Y145.632 E5.24962
G1 X123.279 Y146.038 E5.33262
G1 X120.793 Y146.521 E5.41685
G1 X118.33 Y147.072 E5.50079
G1 X115.897 Y147.688 E5.58427
G1 X115.69 Y147.743 E5.59139
G1 X114.774 Y147.945 E5.62259
G1 X113.844 Y148.069 E5.65379
G1 X113.342 Y148.102 E5.67053
G1 X113.182 Y148.109 E5.67585
G1 X112.834 Y148.119 E5.68743
G1 X112.289 Y148.125 E5.70556
G1 X108.524 Y148.125 E5.83078
G1 X107.864 Y148.115 E5.85274
G1 X106.928 Y148.061 E5.88392
G1 X106 Y147.927 E5.91511
G1 X105.086 Y147.715 E5.94631
G1 X104.194 Y147.425 E5.97751
G1 X103.33 Y147.061 E6.00869
G1 X102.5 Y146.624 E6.03989
G1 X101.71 Y146.119 E6.07108
G1 X100.966 Y145.547 E6.10229
G1 X100.185 Y144.826 E6.13764
G1 X100.071 Y144.71 E6.14305
G1 X99.443 Y144.014 E6.17423
G1 X98.877 Y143.267 E6.2054
G1 X98.376 Y142.474 E6.2366
G1 X97.944 Y141.641 E6.26781
G1 X97.575 Y140.748 E6.29995
G1 X97.243 Y139.833 E6.33232
G1 X96.339 Y137.436 E6.41753
G1 X95.376 Y135.091 E6.50185
G1 X94.348 Y132.776 E6.58609
G1 X93.275 Y130.531 E6.66885
G1 X92.127 Y128.295 E6.75245
G1 X90.906 Y126.071 E6.83684
G1 X89.632 Y123.903 E6.92047
G1 X88.301 Y121.775 E7.00395
G1 X86.894 Y119.663 E7.08836
G1 X85.465 Y117.642 E7.17069
G1 X83.931 Y115.599 E7.25566
G1 X82.37 Y113.638 E7.33902
G1 X80.745 Y111.711 E7.42286
G1 X79.086 Y109.854 E7.50568
G1 X77.343 Y108.007 E7.59015
G1 X75.886 Y106.542 E7.65887
G1 X75.104 Y105.77 E7.69542
G1 X74.466 Y105.084 E7.72658
G1 X73.888 Y104.345 E7.75778
G1 X73.375 Y103.56 E7.78897
G1 X72.931 Y102.734 E7.82016
G1 X72.558 Y101.873 E7.85137
G1 X72.261 Y100.984 E7.88255
G1 X72.04 Y100.072 E7.91376
G1 X71.898 Y99.145 E7.94495
G1 X71.837 Y98.281 E7.97376
G1 X71.827 Y97.957 E7.98454
G1 X71.822 Y97.618 E7.99582
G1 X71.823 Y84.655 E8.42697
G1 X71.833 Y83.953 E8.45032
G1 X71.886 Y83.017 E8.4815
G1 X72.019 Y82.089 E8.51268
G1 X72.231 Y81.175 E8.54389
G1 X72.519 Y80.282 E8.5751
G1 X72.883 Y79.418 E8.60628
G1 X73.319 Y78.587 E8.63749
G1 X73.824 Y77.797 E8.66868
G1 X74.394 Y77.053 E8.69985
G1 X74.767 Y76.629 E8.71863
G1 X74.908 Y76.477 E8.72553
G1 X75.11 Y76.265 E8.73527
G1 X75.374 Y75.997 E8.74778
G0 F6000 X75.656 Y76.28
G1 F1200 X77.382 Y74.553 E8.82899
G1 X77.998 Y73.956 E8.85752
G1 X78.687 Y73.345 E8.88815
G1 X79.426 Y72.796 E8.91877
G1 X80.21 Y72.314 E8.94938
G1 X81.033 Y71.901 E8.98
G1 X81.889 Y71.562 E9.01063
G1 X82.771 Y71.298 E9.04125
G1 X83.673 Y71.111 E9.07189
G1 X85.009 Y70.981 E9.11653
G1 X85.385 Y70.971 E9.12904
G1 X85.924 Y70.965 E9.14697
G1 X128.757 Y70.97 E10.5716
G1 X129.871 Y70.965 E10.60865
G1 X134.082 Y70.966 E10.74871
G1 X134.784 Y70.976 E10.77206
G1 X135.703 Y71.029 E10.80268
G1 X136.614 Y71.162 E10.8333
G1 X137.51 Y71.373 E10.86392
G1 X138.385 Y71.661 E10.89456
G1 X139.231 Y72.024 E10.92517
G1 X140.042 Y72.459 E10.95578
G1 X140.813 Y72.963 E10.98642
G1 X141.842 Y73.804 E11.03062
G1 X141.994 Y73.945 E11.03752
G1 X142.187 Y74.129 E11.04639
G1 X142.442 Y74.379 E11.05826
G1 X144.304 Y76.241 E11.14585
G1 X144.762 Y76.713 E11.16772
G1 X145.374 Y77.401 E11.19835
G1 X145.924 Y78.14 E11.22899
G1 X146.408 Y78.923 E11.2596
G1 X146.822 Y79.745 E11.29022
G1 X147.162 Y80.601 E11.32085
G1 X147.428 Y81.482 E11.35146
G1 X147.616 Y82.383 E11.38207
G1 X147.691 Y82.932 E11.4005
G1 X147.709 Y83.095 E11.40595
G1 X147.772 Y84.128 E11.44038
G1 X147.778 Y84.667 E11.4583
G1 X147.777 Y94.866 E11.79752
G1 X147.766 Y95.573 E11.82104
G1 X147.711 Y96.492 E11.85166
G1 X147.529 Y97.641 E11.89036
G1 X147.259 Y98.895 E11.93302
G1 X146.733 Y101.516 E12.02193
G1 X146.323 Y103.923 E12.10314
G1 X145.956 Y106.5 E12.18972
G1 X145.676 Y108.967 E12.2723
G1 X145.462 Y111.498 E12.35678
G1 X145.321 Y113.978 E12.4394
G1 X145.238 Y117.929 E12.57084
G1 X145.238 Y129.73 E12.96334
G1 X145.232 Y131.434 E13.02002
G1 X145.238 Y132.209 E13.04579
G1 X145.237 Y133.071 E13.07446
G1 X145.227 Y133.773 E13.09782
G1 X145.174 Y134.692 E13.12843
G1 X145.041 Y135.603 E13.15905
G1 X144.83 Y136.499 E13.18967
G1 X144.542 Y137.374 E13.22031
G1 X144.179 Y138.22 E13.25093
G1 X143.744 Y139.031 E13.28154
G1 X143.24 Y139.802 E13.31217
G1 X142.672 Y140.526 E13.34278
G1 X142.123 Y141.117 E13.36961
G1 X142.01 Y141.23 E13.37492
G1 X141.332 Y141.852 E13.40553
G1 X140.602 Y142.413 E13.43615
G1 X139.826 Y142.909 E13.46678
G1 X139.01 Y143.335 E13.4974
G1 X138.16 Y143.689 E13.52802
G1 X137.282 Y143.967 E13.55865
G1 X136.384 Y144.169 E13.58927
G1 X135.191 Y144.313 E13.62923
G1 X134.126 Y144.381 E13.66473
G1 X133.197 Y144.428 E13.69567
G1 X130.7 Y144.624 E13.77897
G1 X128.206 Y144.892 E13.8624
G1 X125.693 Y145.235 E13.94676
G1 X123.175 Y145.65 E14.03164
G1 X120.702 Y146.131 E14.11543
G1 X118.284 Y146.672 E14.19784
G1 X115.773 Y147.307 E14.28399
G1 X115.587 Y147.357 E14.29039
G1 X114.688 Y147.554 E14.321
G1 X113.324 Y147.703 E14.36664
G1 X113.164 Y147.71 E14.37197
G1 X112.829 Y147.719 E14.38311
G1 X112.289 Y147.725 E14.40107
G1 X108.53 Y147.725 E14.5261
G1 X107.87 Y147.715 E14.54805
G1 X106.951 Y147.661 E14.57867
G1 X106.04 Y147.527 E14.6093
G1 X105.145 Y147.315 E14.63989
G1 X104.27 Y147.026 E14.67054
G1 X103.425 Y146.663 E14.70113
G1 X102.614 Y146.227 E14.73175
G1 X101.843 Y145.723 E14.76239
G1 X101.12 Y145.153 E14.79301
G1 X100.471 Y144.546 E14.82257
G1 X100.357 Y144.43 E14.82797
G1 X99.741 Y143.746 E14.85859
G1 X99.186 Y143.011 E14.88922
G1 X98.697 Y142.231 E14.91984
G1 X98.278 Y141.411 E14.95047
G1 X97.951 Y140.612 E14.97918
G1 X97.622 Y139.704 E15.01131
G1 X96.707 Y137.28 E15.09748
G1 X95.74 Y134.926 E15.18212
G1 X94.717 Y132.62 E15.26603
G1 X93.628 Y130.341 E15.35004
G1 X92.484 Y128.114 E15.43331
G1 X91.258 Y125.882 E15.51801
G1 X89.973 Y123.694 E15.60241
G1 X88.63 Y121.547 E15.68663
G1 X87.238 Y119.457 E15.77016
G1 X85.778 Y117.393 E15.85424
G1 X84.265 Y115.377 E15.93808
G1 X82.672 Y113.376 E16.02315
G1 X81.048 Y111.45 E16.10694
G1 X79.374 Y109.577 E16.19049
G1 X77.616 Y107.714 E16.27569
G1 X76.24 Y106.33 E16.3406
G1 X75.385 Y105.486 E16.38056
G1 X74.759 Y104.811 E16.41118
G1 X74.193 Y104.085 E16.44179
G1 X73.693 Y103.312 E16.47241
G1 X73.261 Y102.499 E16.50303
G1 X72.902 Y101.651 E16.53366
G1 X72.618 Y100.775 E16.56429
G1 X72.41 Y99.878 E16.59492
G1 X72.282 Y98.967 E16.62551
G1 X72.237 Y98.269 E16.64878
G1 X72.227 Y97.945 E16.65956
G1 X72.222 Y97.618 E16.67044
G1 X72.223 Y84.661 E17.10139
G1 X72.233 Y83.959 E17.12474
G1 X72.286 Y83.04 E17.15536
G1 X72.419 Y82.129 E17.18598
G1 X72.63 Y81.233 E17.21659
G1 X72.918 Y80.358 E17.24723
G1 X73.281 Y79.512 E17.27785
G1 X73.716 Y78.701 E17.30846
G1 X74.22 Y77.93 E17.3391
G1 X75.061 Y76.901 E17.3833
G1 X75.202 Y76.749 E17.39019
G1 X75.396 Y76.545 E17.39956
G1 X75.656 Y76.28 E17.4119
G0 F6000 X75.939 Y76.563
G1 F1200 X77.789 Y74.714 E17.4989
G1 X78.276 Y74.243 E17.52143
G1 X78.952 Y73.645 E17.55145
G1 X79.679 Y73.108 E17.58151
G1 X80.45 Y72.638 E17.61155
G1 X81.26 Y72.238 E17.64159
G1 X82.102 Y71.912 E17.67162
G1 X82.969 Y71.661 E17.70164
G1 X83.856 Y71.488 E17.7317
G1 X85.023 Y71.381 E17.77068
G1 X85.39 Y71.371 E17.78289
G1 X85.924 Y71.365 E17.80065
G1 X128.759 Y71.37 E19.22535
G1 X129.873 Y71.365 E19.2624
G1 X134.076 Y71.366 E19.40219
G1 X134.778 Y71.376 E19.42555
G1 X135.68 Y71.429 E19.4556
G1 X136.573 Y71.561 E19.48562
G1 X137.451 Y71.772 E19.51566
G1 X138.307 Y72.06 E19.54569
G1 X139.135 Y72.422 E19.57575
G1 X139.927 Y72.856 E19.60579
G1 X140.677 Y73.359 E19.63582
G1 X141.57 Y74.097 E19.67436
G1 X141.722 Y74.238 E19.68125
G1 X141.908 Y74.415 E19.68979
G1 X142.159 Y74.661 E19.70148
G1 X144.017 Y76.52 E19.7889
G1 X144.475 Y76.992 E19.81077
G1 X145.075 Y77.667 E19.84081
G1 X145.612 Y78.393 E19.87085
G1 X146.084 Y79.163 E19.90089
G1 X146.485 Y79.972 E19.93092
G1 X146.813 Y80.814 E19.96097
G1 X147.065 Y81.681 E19.991
G1 X147.293 Y82.975 E20.0347
G1 X147.311 Y83.138 E20.04016
G1 X147.372 Y84.133 E20.07331
G1 X147.378 Y84.667 E20.09108
G1 X147.377 Y94.86 E20.4301
G1 X147.366 Y95.567 E20.45361
G1 X147.312 Y96.468 E20.48363
G1 X147.138 Y97.557 E20.52031
G1 X146.873 Y98.786 E20.56213
G1 X146.342 Y101.43 E20.65183
G1 X145.919 Y103.912 E20.73557
G1 X145.566 Y106.395 E20.81898
G1 X145.279 Y108.924 E20.90364
G1 X145.063 Y111.477 E20.98886
G1 X144.921 Y113.974 E21.07204
G1 X144.838 Y117.921 E21.20335
G1 X144.838 Y129.729 E21.59608
G1 X144.832 Y131.437 E21.65289
G1 X144.838 Y132.212 E21.67867
G1 X144.837 Y133.065 E21.70704
G1 X144.827 Y133.767 E21.73039
G1 X144.774 Y134.669 E21.76044
G1 X144.642 Y135.562 E21.79047
G1 X144.431 Y136.44 E21.8205
G1 X144.143 Y137.296 E21.85054
G1 X143.781 Y138.124 E21.8806
G1 X143.347 Y138.916 E21.91063
G1 X142.844 Y139.666 E21.94067
G1 X142.278 Y140.369 E21.97069
G1 X141.84 Y140.834 E21.99193
G1 X141.727 Y140.947 E21.99725
G1 X141.061 Y141.557 E22.02729
G1 X140.344 Y142.106 E22.05732
G1 X139.58 Y142.588 E22.08737
G1 X138.777 Y143.002 E22.11742
G1 X137.941 Y143.342 E22.14743
G1 X137.078 Y143.608 E22.17747
G1 X136.195 Y143.796 E22.2075
G1 X135.166 Y143.914 E22.24195
G1 X134.106 Y143.981 E22.27727
G1 X133.217 Y144.026 E22.30688
G1 X130.663 Y144.227 E22.39209
G1 X128.142 Y144.498 E22.47642
G1 X125.611 Y144.843 E22.56138
G1 X123.133 Y145.251 E22.64491
G1 X120.617 Y145.74 E22.73016
G1 X118.17 Y146.288 E22.81356
G1 X115.65 Y146.926 E22.90002
G1 X115.484 Y146.97 E22.90573
G1 X114.602 Y147.163 E22.93576
G1 X113.307 Y147.303 E22.97908
G1 X113.147 Y147.31 E22.98441
G1 X112.824 Y147.319 E22.99516
G1 X112.289 Y147.325 E23.01295
G1 X108.536 Y147.325 E23.13778
G1 X107.876 Y147.315 E23.15973
G1 X106.975 Y147.261 E23.18975
G1 X106.082 Y147.128 E23.21978
G1 X105.204 Y146.916 E23.24982
G1 X104.348 Y146.628 E23.27986
G1 X103.521 Y146.265 E23.3099
G1 X102.73 Y145.83 E23.33993
G1 X101.98 Y145.327 E23.36996
G1 X101.277 Y144.759 E23.40002
G1 X100.756 Y144.266 E23.42388
G1 X100.642 Y144.15 E23.42929
G1 X100.038 Y143.478 E23.45934
G1 X99.496 Y142.756 E23.48937
G1 X99.02 Y141.988 E23.51942
G1 X98.614 Y141.182 E23.54944
G1 X98.327 Y140.475 E23.57482
G1 X98.01 Y139.6 E23.60577
G1 X97.075 Y137.123 E23.69383
G1 X96.105 Y134.76 E23.77879
G1 X95.093 Y132.48 E23.86175
G1 X93.986 Y130.164 E23.94713
G1 X92.817 Y127.889 E24.0322
G1 X91.611 Y125.693 E24.11553
G1 X90.324 Y123.501 E24.20008
G1 X88.969 Y121.335 E24.28505
G1 X87.553 Y119.21 E24.36998
G1 X86.109 Y117.168 E24.45317
G1 X84.569 Y115.116 E24.5385
G1 X82.989 Y113.131 E24.62288
G1 X81.353 Y111.191 E24.70729
G1 X79.662 Y109.299 E24.79169
G1 X77.907 Y107.44 E24.87672
G1 X76.521 Y106.045 E24.94212
G1 X75.666 Y105.201 E24.98208
G1 X75.052 Y104.539 E25.01211
G1 X74.499 Y103.825 E25.04215
G1 X74.012 Y103.065 E25.07217
G1 X73.593 Y102.264 E25.10224
G1 X73.247 Y101.43 E25.13227
G1 X72.976 Y100.569 E25.16229
G1 X72.782 Y99.687 E25.19233
G1 X72.667 Y98.791 E25.22237
G1 X72.637 Y98.257 E25.24016
G1 X72.627 Y97.933 E25.25094
G1 X72.622 Y97.618 E25.26142
G1 X72.623 Y84.667 E25.69217
G1 X72.633 Y83.965 E25.71553
G1 X72.686 Y83.063 E25.74558
G1 X72.818 Y82.17 E25.7756
G1 X73.029 Y81.292 E25.80564
G1 X73.317 Y80.436 E25.83567
G1 X73.679 Y79.608 E25.86573
G1 X74.113 Y78.816 E25.89577
G1 X74.616 Y78.066 E25.9258
G1 X75.354 Y77.173 E25.96434
G1 X75.495 Y77.021 E25.97123
G1 X75.682 Y76.825 E25.98024
G1 X75.939 Y76.563 E25.99245
G1 F1500 E19.49245
G0 F6000 X82.161 Y98.105
G0 X110.509 Y132.679
G1 F1500 E25.99245
G1 F1200 X110.777 Y132.679 E26.00136
G1 X110.631 Y132.933 E26.01111
G1 X110.509 Y133.27 E26.02303
G1 X110.509 Y132.679 E26.04268
G0 F6000 X110.109 Y132.279
G1 F1200 X111.625 Y132.279 E26.09311
G1 X111.433 Y132.471 E26.10214
G1 X111.167 Y132.795 E26.11608
G1 X110.966 Y133.162 E26.13
G1 X110.839 Y133.562 E26.14396
G1 X110.789 Y134.027 E26.15951
G1 X110.789 Y134.925 E26.18938
G1 X110.109 Y134.926 E26.21199
G1 X110.109 Y132.279 E26.30003
G0 F6000 X111.478 Y133.049
G1 F1200 X111.307 Y133.387 E26.31263
G1 X111.21 Y133.753 E26.32523
G1 X111.189 Y134.027 E26.33437
G1 X111.189 Y135.325 E26.37754
G1 X109.709 Y135.326 E26.42676
G1 X109.709 Y131.879 E26.54141
G1 X127.798 Y131.879 E27.14305
G1 X127.863 Y131.944 E27.14611
G1 X113.271 Y131.945 E27.63144
G1 X112.894 Y131.985 E27.64405
G1 X112.534 Y132.103 E27.65665
G1 X112.206 Y132.294 E27.66928
G1 X111.998 Y132.472 E27.67838
G1 X111.716 Y132.754 E27.69165
G1 X111.478 Y133.049 E27.70425
G0 F6000 X111.793 Y133.3
G1 F1200 X111.654 Y133.604 E27.71537
G1 X111.589 Y134.027 E27.72961
G1 X111.589 Y135.725 E27.78608
G1 X109.309 Y135.726 E27.86191
G1 X109.309 Y131.479 E28.00317
G1 X127.964 Y131.479 E28.62364
G1 X128.354 Y131.869 E28.64198
G1 X128.617 Y132.075 E28.65309
G1 X128.921 Y132.214 E28.66421
G1 X129.344 Y132.279 E28.67845
G1 X129.537 Y132.279 E28.68487
G1 X129.562 Y132.344 E28.68718
G1 X113.271 Y132.345 E29.22902
G1 X112.939 Y132.385 E29.24014
G1 X112.626 Y132.502 E29.25126
G1 X112.281 Y132.755 E29.26549
G1 X111.999 Y133.037 E29.27875
G1 X111.793 Y133.3 E29.28986
G0 F6000 X112.113 Y133.546
G1 F1200 X112.013 Y133.81 E29.29925
G1 X111.989 Y134.027 E29.30651
G1 X111.989 Y136.125 E29.37629
G1 X108.909 Y136.126 E29.47874
G1 X108.909 Y131.079 E29.6466
