;FLAVOR:Marlin
;TIME:2531
;Filament used: 1.29301m
;Layer height: 0.2
;MINX:77.301
;MINY:59.376
;MINZ:0.2
;MAXX:139.961
;MAXY:160.624
;MAXZ:13
;Generated with Cura_SteamEngine 4.8.0
M140 S60
M105
M190 S60
M104 S200
M105
M109 S200
M82 ;absolute extrusion mode
; Ender 3 Custom Start G-code
G92 E0 ; Reset Extruder
G28 ; Home all axes
G1 Z2.0 F3000 ; Move Z Axis up little to prevent scratching of Heat Bed
G1 X0.1 Y20 Z0.3 F5000.0 ; Move to start position
G1 X0.1 Y200.0 Z0.3 F1500.0 E15 ; Draw the first line
G1 X0.4 Y200.0 Z0.3 F5000.0 ; Move to side a little
G1 X0.4 Y20 Z0.3 F1500.0 E30 ; Draw the second line
G92 E0 ; Reset Extruder
G1 Z2.0 F3000 ; Move Z Axis up little to prevent scratching of Heat Bed
G1 X5 Y20 Z0.3 F5000.0 ; Move over to prevent blob squish
G92 E0
G92 E0
G1 F1500 E-6.5
;LAYER_COUNT:65
;LAYER:0
M107
G0 F6000 X114.444 Y64.585 Z0.2
;TYPE:SKIRT
G1 F1500 E0
G1 F1200 X114.972 Y63.809 E0.03122
G1 X115.564 Y63.082 E0.0624
G1 X116.216 Y62.408 E0.09359
G1 X116.923 Y61.792 E0.12478
G1 X117.68 Y61.238 E0.15598
G1 X118.481 Y60.751 E0.18716
G1 X119.321 Y60.334 E0.21835
G1 X120.194 Y59.99 E0.24956
G1 X121.092 Y59.721 E0.28074
G1 X122.01 Y59.53 E0.31192
G1 X122.942 Y59.418 E0.34315
G1 X123.481 Y59.389 E0.3611
G1 X123.801 Y59.38 E0.37175
G1 X124.11 Y59.376 E0.38202
G1 X128.254 Y59.376 E0.51985
G1 X129.11 Y59.387 E0.54833
G1 X130.046 Y59.441 E0.57951
G1 X130.974 Y59.573 E0.61069
G1 X131.888 Y59.785 E0.64189
G1 X132.78 Y60.074 E0.67308
G1 X133.645 Y60.437 E0.70428
G1 X134.475 Y60.873 E0.73546
G1 X135.266 Y61.378 E0.76668
G1 X136.01 Y61.949 E0.79787
G1 X136.703 Y62.581 E0.82907
G1 X137.34 Y63.269 E0.86025
G1 X137.915 Y64.01 E0.89145
G1 X138.426 Y64.796 E0.92263
G1 X138.868 Y65.624 E0.95385
G1 X139.237 Y66.486 E0.98503
G1 X139.532 Y67.376 E1.01622
G1 X139.75 Y68.288 E1.0474
G1 X139.89 Y69.216 E1.07862
G1 X139.948 Y70.075 E1.10725
G1 X139.957 Y70.393 E1.11784
G1 X139.961 Y70.706 E1.12825
G1 X139.959 Y76.182 E1.31038
G1 X139.931 Y78.114 E1.37464
G1 X139.915 Y78.672 E1.39321
G1 X139.905 Y80.003 E1.43748
G1 X139.905 Y99.019 E2.06996
G1 X139.946 Y101.834 E2.16359
G1 X139.955 Y102.132 E2.17351
G1 X139.96 Y102.455 E2.18425
G1 X139.959 Y104.115 E2.23947
G1 X139.931 Y106.026 E2.30303
G1 X139.914 Y106.625 E2.32296
G1 X139.905 Y107.925 E2.3662
G1 X139.904 Y149.054 E3.73416
G1 X139.893 Y149.781 E3.75834
G1 X139.839 Y150.718 E3.78956
G1 X139.705 Y151.646 E3.82074
G1 X139.493 Y152.56 E3.85195
G1 X139.203 Y153.452 E3.88315
G1 X138.839 Y154.316 E3.91433
G1 X138.402 Y155.146 E3.94553
G1 X137.897 Y155.936 E3.97671
G1 X137.325 Y156.68 E4.00793
G1 X136.693 Y157.372 E4.0391
G1 X136.004 Y158.008 E4.07029
G1 X135.263 Y158.584 E4.1015
G1 X134.476 Y159.093 E4.13267
G1 X133.648 Y159.535 E4.16389
G1 X132.786 Y159.903 E4.19507
G1 X131.895 Y160.198 E4.22628
G1 X130.983 Y160.415 E4.25746
G1 X130.056 Y160.554 E4.28864
G1 X129.204 Y160.611 E4.31704
G1 X128.885 Y160.62 E4.32765
G1 X128.577 Y160.624 E4.3379
G1 X89.125 Y160.624 E5.65008
G1 X88.267 Y160.613 E5.67862
G1 X87.331 Y160.56 E5.7098
G1 X86.402 Y160.427 E5.74101
G1 X85.489 Y160.215 E5.77219
G1 X84.596 Y159.927 E5.8034
G1 X83.732 Y159.563 E5.83458
G1 X82.901 Y159.127 E5.86579
G1 X82.111 Y158.622 E5.89698
G1 X81.367 Y158.052 E5.92815
G1 X80.646 Y157.392 E5.96066
G1 X80.533 Y157.279 E5.96597
G1 X79.899 Y156.588 E5.99717
G1 X79.325 Y155.846 E6.02837
G1 X78.818 Y155.057 E6.05956
G1 X78.379 Y154.229 E6.09073
G1 X78.012 Y153.365 E6.12195
G1 X77.72 Y152.474 E6.15314
G1 X77.506 Y151.561 E6.18433
G1 X77.369 Y150.633 E6.21553
G1 X77.318 Y149.894 E6.24017
G1 X77.305 Y149.435 E6.25544
G1 X77.301 Y149.004 E6.26977
G1 X77.302 Y143.976 E6.43701
G1 X77.312 Y143.274 E6.46036
G1 X77.365 Y142.338 E6.49154
G1 X77.498 Y141.41 E6.52272
G1 X77.71 Y140.496 E6.55393
G1 X77.998 Y139.603 E6.58513
G1 X78.362 Y138.739 E6.61632
G1 X78.798 Y137.908 E6.64753
G1 X79.303 Y137.118 E6.67871
G1 X79.873 Y136.374 E6.70989
G1 X80.503 Y135.682 E6.74101
G1 X80.634 Y135.55 E6.7472
G1 X81.229 Y134.994 E6.77428
G1 X82.142 Y134.201 E6.8145
G1 X84.067 Y132.482 E6.90034
G1 X85.89 Y130.758 E6.9838
G1 X87.664 Y128.984 E7.06724
G1 X89.399 Y127.148 E7.15126
G1 X91.075 Y125.27 E7.23498
G1 X92.7 Y123.343 E7.31882
G1 X94.242 Y121.405 E7.40119
G1 X95.775 Y119.362 E7.48614
G1 X97.238 Y117.293 E7.57042
G1 X98.628 Y115.205 E7.65385
G1 X99.939 Y113.109 E7.73608
G1 X101.237 Y110.898 E7.82135
G1 X102.437 Y108.714 E7.90423
G1 X103.588 Y106.471 E7.98809
G1 X104.686 Y104.175 E8.07273
G1 X105.7 Y101.886 E8.156
G1 X106.662 Y99.543 E8.24024
G1 X107.538 Y97.224 E8.32269
G1 X108.369 Y94.819 E8.40732
G1 X109.114 Y92.449 E8.48995
G1 X109.807 Y90.005 E8.57445
G1 X110.433 Y87.536 E8.65916
G1 X110.972 Y85.112 E8.74176
G1 X111.451 Y82.639 E8.82554
G1 X111.86 Y80.153 E8.90933
G1 X112.196 Y77.672 E8.9926
G1 X112.466 Y75.14 E9.0773
G1 X112.664 Y72.626 E9.16117
G1 X112.77 Y70.624 E9.22785
G1 X112.801 Y69.904 E9.25182
G1 X112.881 Y68.97 E9.283
G1 X113.042 Y68.046 E9.31419
G1 X113.28 Y67.139 E9.34538
G1 X113.595 Y66.255 E9.3766
G1 X113.983 Y65.402 E9.40776
G1 X114.444 Y64.585 E9.43896
G0 F6000 X114.837 Y64.71
G1 F1200 X115.364 Y63.954 E9.46962
G1 X115.953 Y63.247 E9.50022
G1 X116.602 Y62.594 E9.53084
G1 X117.305 Y62 E9.56145
G1 X118.058 Y61.469 E9.5921
G1 X118.853 Y61.005 E9.62272
G1 X119.685 Y60.612 E9.65332
G1 X120.549 Y60.293 E9.68395
G1 X121.437 Y60.049 E9.71458
G1 X122.343 Y59.884 E9.74521
G1 X123.492 Y59.789 E9.78356
G1 X123.812 Y59.78 E9.79421
G1 X124.11 Y59.776 E9.80412
G1 X128.254 Y59.776 E9.94195
G1 X129.104 Y59.787 E9.97022
G1 X130.023 Y59.84 E10.00084
G1 X130.934 Y59.973 E10.03146
G1 X131.83 Y60.184 E10.06208
G1 X132.704 Y60.472 E10.09268
G1 X133.551 Y60.835 E10.12333
G1 X134.362 Y61.27 E10.15394
G1 X135.132 Y61.774 E10.18455
G1 X135.856 Y62.343 E10.21518
G1 X136.528 Y62.973 E10.24581
G1 X137.143 Y63.658 E10.27643
G1 X137.696 Y64.394 E10.30705
G1 X138.183 Y65.175 E10.33766
G1 X138.6 Y65.996 E10.36829
G1 X138.945 Y66.85 E10.39893
G1 X139.214 Y67.73 E10.42953
G1 X139.406 Y68.631 E10.46017
G1 X139.519 Y69.544 E10.49077
G1 X139.548 Y70.086 E10.50882
G1 X139.557 Y70.404 E10.5194
G1 X139.561 Y70.706 E10.52945
G1 X139.559 Y76.176 E10.71138
G1 X139.531 Y78.103 E10.77548
G1 X139.515 Y78.658 E10.79395
G1 X139.505 Y80 E10.83858
G1 X139.505 Y99.025 E11.47136
G1 X139.546 Y101.85 E11.56533
G1 X139.555 Y102.143 E11.57508
G1 X139.56 Y102.455 E11.58546
G1 X139.559 Y104.11 E11.6405
G1 X139.531 Y106.015 E11.70387
G1 X139.514 Y106.612 E11.72373
G1 X139.505 Y107.922 E11.76731
G1 X139.504 Y149.048 E13.13516
G1 X139.493 Y149.775 E13.15934
G1 X139.439 Y150.694 E13.18996
G1 X139.305 Y151.605 E13.22059
G1 X139.093 Y152.501 E13.25121
G1 X138.805 Y153.375 E13.28182
G1 X138.441 Y154.221 E13.31245
G1 X138.005 Y155.032 E13.34308
G1 X137.501 Y155.802 E13.37369
G1 X136.931 Y156.526 E13.40433
G1 X136.301 Y157.197 E13.43495
G1 X135.616 Y157.811 E13.46554
G1 X134.879 Y158.364 E13.49619
G1 X134.097 Y158.85 E13.52681
G1 X133.276 Y159.267 E13.55744
G1 X132.422 Y159.611 E13.58806
G1 X131.542 Y159.879 E13.61866
G1 X130.641 Y160.07 E13.64929
G1 X129.727 Y160.182 E13.67992
G1 X129.193 Y160.211 E13.6977
G1 X128.874 Y160.22 E13.70832
G1 X128.577 Y160.224 E13.7182
G1 X89.125 Y160.224 E15.03038
G1 X88.273 Y160.213 E15.05872
G1 X87.354 Y160.16 E15.08933
G1 X86.443 Y160.027 E15.11995
G1 X85.547 Y159.816 E15.15057
G1 X84.672 Y159.528 E15.18121
G1 X83.826 Y159.165 E15.21183
G1 X83.015 Y158.73 E15.24244
G1 X82.244 Y158.226 E15.27307
G1 X81.52 Y157.657 E15.3037
G1 X80.929 Y157.109 E15.33051
G1 X80.816 Y156.996 E15.33582
G1 X80.194 Y156.318 E15.36643
G1 X79.633 Y155.588 E15.39705
G1 X79.137 Y154.812 E15.42768
G1 X78.711 Y153.996 E15.45829
G1 X78.357 Y153.146 E15.48892
G1 X78.079 Y152.268 E15.51955
G1 X77.877 Y151.37 E15.55016
G1 X77.754 Y150.457 E15.58081
G1 X77.718 Y149.879 E15.60007
G1 X77.705 Y149.431 E15.61497
G1 X77.701 Y149 E15.62931
G1 X77.702 Y143.982 E15.79621
G1 X77.712 Y143.28 E15.81956
G1 X77.765 Y142.361 E15.85018
G1 X77.898 Y141.45 E15.8808
G1 X78.109 Y140.554 E15.91141
G1 X78.397 Y139.679 E15.94205
G1 X78.76 Y138.833 E15.97267
G1 X79.195 Y138.022 E16.00328
G1 X79.699 Y137.251 E16.03392
G1 X80.267 Y136.527 E16.06452
G1 X80.787 Y135.964 E16.09001
G1 X80.918 Y135.832 E16.0962
G1 X81.492 Y135.296 E16.12232
G1 X82.351 Y134.55 E16.16016
G1 X84.331 Y132.782 E16.24845
G1 X86.182 Y131.032 E16.33317
G1 X87.938 Y129.276 E16.41577
G1 X89.687 Y127.425 E16.50047
G1 X91.377 Y125.531 E16.5849
G1 X93.019 Y123.584 E16.66961
G1 X94.56 Y121.648 E16.75191
G1 X96.106 Y119.588 E16.83757
G1 X97.554 Y117.54 E16.921
G1 X98.967 Y115.417 E17.00582
G1 X100.29 Y113.302 E17.08879
G1 X101.581 Y111.103 E17.1736
G1 X102.786 Y108.91 E17.25683
G1 X103.954 Y106.633 E17.34194
G1 X105.048 Y104.344 E17.42632
G1 X106.058 Y102.067 E17.50917
G1 X107.03 Y99.7 E17.59428
G1 X107.918 Y97.348 E17.6779
G1 X108.739 Y94.974 E17.76145
G1 X109.507 Y92.531 E17.84662
G1 X110.194 Y90.107 E17.93042
G1 X110.817 Y87.648 E18.01479
G1 X111.361 Y85.203 E18.0981
G1 X111.851 Y82.674 E18.18378
G1 X112.252 Y80.235 E18.26599
G1 X112.596 Y77.697 E18.35118
G1 X112.861 Y75.217 E18.43413
G1 X113.063 Y72.638 E18.52017
G1 X113.166 Y70.706 E18.58452
G1 X113.2 Y69.922 E18.61062
G1 X113.28 Y69.005 E18.64124
G1 X113.44 Y68.098 E18.67187
G1 X113.677 Y67.208 E18.7025
G1 X113.991 Y66.343 E18.73311
G1 X114.379 Y65.508 E18.76373
G1 X114.837 Y64.71 E18.79434
G0 F6000 X115.231 Y64.837
G1 F1200 X115.755 Y64.101 E18.82439
G1 X116.343 Y63.415 E18.85444
G1 X116.988 Y62.784 E18.88445
G1 X117.687 Y62.212 E18.91449
G1 X118.434 Y61.704 E18.94453
G1 X119.223 Y61.265 E18.97457
G1 X120.047 Y60.896 E19.00459
G1 X120.901 Y60.603 E19.03462
G1 X121.778 Y60.385 E19.06468
G1 X122.67 Y60.247 E19.0947
G1 X123.503 Y60.189 E19.12247
G1 X123.823 Y60.18 E19.13312
G1 X124.11 Y60.176 E19.14267
G1 X128.254 Y60.176 E19.2805
G1 X129.098 Y60.187 E19.30857
G1 X130 Y60.24 E19.33862
G1 X130.893 Y60.372 E19.36865
G1 X131.771 Y60.583 E19.39868
G1 X132.627 Y60.871 E19.42872
G1 X133.454 Y61.233 E19.45875
G1 X134.246 Y61.668 E19.4888
G1 X134.997 Y62.17 E19.51885
G1 X135.7 Y62.737 E19.54888
G1 X136.35 Y63.364 E19.57892
G1 X136.942 Y64.046 E19.60896
G1 X137.472 Y64.777 E19.63899
G1 X137.934 Y65.553 E19.66903
G1 X138.327 Y66.366 E19.69906
G1 X138.645 Y67.211 E19.72909
G1 X138.888 Y68.081 E19.75914
G1 X139.053 Y68.969 E19.78918
G1 X139.148 Y70.097 E19.82683
G1 X139.157 Y70.415 E19.83741
G1 X139.161 Y70.706 E19.84709
G1 X139.159 Y76.171 E20.02885
G1 X139.131 Y78.091 E20.09272
G1 X139.115 Y78.643 E20.11109
G1 X139.105 Y79.997 E20.15612
G1 X139.105 Y99.031 E20.7892
G1 X139.146 Y101.8 E20.8813
G1 X139.156 Y102.155 E20.89312
G1 X139.16 Y102.455 E20.90309
G1 X139.159 Y104.104 E20.95794
G1 X139.131 Y106.003 E21.02111
G1 X139.114 Y106.597 E21.04087
G1 X139.105 Y107.919 E21.08484
G1 X139.104 Y149.042 E22.4526
G1 X139.093 Y149.769 E22.47678
G1 X139.039 Y150.671 E22.50684
G1 X138.906 Y151.564 E22.53687
G1 X138.694 Y152.442 E22.56691
G1 X138.406 Y153.298 E22.59695
G1 X138.043 Y154.125 E22.62699
G1 X137.608 Y154.916 E22.65701
G1 X137.105 Y155.666 E22.68705
G1 X136.538 Y156.369 E22.71709
G1 X135.91 Y157.019 E22.74715
G1 X135.228 Y157.61 E22.77716
G1 X134.496 Y158.139 E22.8072
G1 X133.72 Y158.601 E22.83724
G1 X132.906 Y158.993 E22.86729
G1 X132.061 Y159.311 E22.89732
G1 X131.191 Y159.553 E22.92735
G1 X130.303 Y159.717 E22.95739
G1 X129.182 Y159.811 E22.9948
G1 X128.863 Y159.82 E23.00542
G1 X128.577 Y159.824 E23.01493
G1 X89.125 Y159.824 E24.32711
G1 X88.279 Y159.813 E24.35525
G1 X87.377 Y159.76 E24.3853
G1 X86.484 Y159.628 E24.41533
G1 X85.605 Y159.417 E24.44539
G1 X84.749 Y159.129 E24.47543
G1 X83.922 Y158.767 E24.50546
G1 X83.13 Y158.333 E24.53549
G1 X82.38 Y157.83 E24.56553
G1 X81.677 Y157.263 E24.59557
G1 X81.212 Y156.826 E24.61679
G1 X81.099 Y156.713 E24.62211
G1 X80.489 Y156.047 E24.65215
G1 X79.94 Y155.33 E24.68218
G1 X79.458 Y154.566 E24.71223
G1 X79.044 Y153.763 E24.74228
G1 X78.704 Y152.927 E24.77229
G1 X78.438 Y152.064 E24.80233
G1 X78.25 Y151.181 E24.83236
G1 X78.117 Y149.865 E24.87635
G1 X78.105 Y149.428 E24.89089
G1 X78.101 Y148.997 E24.90523
G1 X78.102 Y143.988 E25.07183
G1 X78.112 Y143.286 E25.09518
G1 X78.165 Y142.384 E25.12523
G1 X78.297 Y141.491 E25.15525
G1 X78.508 Y140.613 E25.18529
G1 X78.796 Y139.757 E25.21533
G1 X79.158 Y138.929 E25.24538
G1 X79.592 Y138.137 E25.27542
G1 X80.095 Y137.387 E25.30546
G1 X80.661 Y136.684 E25.33547
G1 X81.071 Y136.246 E25.35543
G1 X81.202 Y136.114 E25.36161
G1 X81.754 Y135.598 E25.38675
G1 X82.637 Y134.831 E25.42565
G1 X84.588 Y133.09 E25.51262
G1 X86.476 Y131.304 E25.59906
G1 X88.229 Y129.551 E25.68151
G1 X89.994 Y127.683 E25.76699
G1 X91.666 Y125.81 E25.8505
G1 X93.323 Y123.845 E25.93599
G1 X94.877 Y121.892 E26.019
G1 X96.419 Y119.836 E26.10448
G1 X97.897 Y117.746 E26.18962
G1 X99.296 Y115.645 E26.27357
G1 X100.631 Y113.51 E26.35732
G1 X101.927 Y111.303 E26.44245
G1 X103.149 Y109.079 E26.52685
G1 X104.306 Y106.824 E26.61115
G1 X105.404 Y104.529 E26.69576
G1 X106.435 Y102.201 E26.78045
G1 X107.398 Y99.857 E26.86473
G1 X108.294 Y97.483 E26.94913
G1 X109.126 Y95.077 E27.0338
G1 X109.888 Y92.654 E27.11828
G1 X110.581 Y90.209 E27.20281
G1 X111.209 Y87.728 E27.28793
G1 X111.751 Y85.295 E27.37083
G1 X112.239 Y82.778 E27.45611
G1 X112.649 Y80.282 E27.54024
G1 X112.996 Y77.726 E27.62603
G1 X113.259 Y75.254 E27.70871
G1 X113.46 Y72.69 E27.79425
G1 X113.568 Y70.666 E27.86167
G1 X113.6 Y69.939 E27.88587
G1 X113.679 Y69.04 E27.91589
G1 X113.838 Y68.151 E27.94593
G1 X114.074 Y67.279 E27.97597
G1 X114.387 Y66.432 E28.00601
G1 X114.774 Y65.616 E28.03604
G1 X115.231 Y64.837 E28.06608
G1 F1500 E21.56608
G0 F6000 X97.925 Y147.796
G1 F1500 E28.06608
G1 F1200 X97.953 Y147.824 E28.0674
G1 X97.903 Y147.824 E28.06906
G1 X97.925 Y147.796 E28.07025
G0 F6000 X97.625 Y147.527
G1 F1200 X97.764 Y147.223 E28.08136
G1 X97.794 Y147.03 E28.08786
G1 X97.979 Y147.284 E28.09831
G1 X98.261 Y147.566 E28.11158
G1 X98.524 Y147.772 E28.12269
G1 X98.828 Y147.911 E28.13381
G1 X99.251 Y147.976 E28.14804
G1 X121.301 Y147.976 E28.88143
G1 X121.625 Y147.937 E28.89228
G1 X121.625 Y148.224 E28.90183
G1 X96.929 Y148.224 E29.72322
G1 X97.137 Y148.072 E29.73179
G1 X97.419 Y147.79 E29.74505
G1 X97.625 Y147.527 E29.75616
G0 F6000 X98.544 Y147.283
G1 F1200 X98.77 Y147.452 E29.76555
G1 X99.034 Y147.552 E29.77494
G1 X99.251 Y147.576 E29.7822
G1 X121.301 Y147.576 E30.51559
G1 X121.58 Y147.536 E30.52496
G1 X121.837 Y147.42 E30.53434
G1 X122.025 Y147.266 E30.54242
G1 X122.025 Y148.624 E30.58759
G1 X89.301 Y148.624 E31.67599
G1 X89.301 Y144.288 E31.82021
G1 X89.841 Y144.287 E31.83817
G1 X89.841 Y146.803 E31.92185
G1 X89.881 Y147.082 E31.93123
G1 X89.997 Y147.339 E31.9406
G1 X90.134 Y147.51 E31.94789
G1 X90.416 Y147.792 E31.96116
G1 X90.642 Y147.961 E31.97054
G1 X90.906 Y148.061 E31.97993
G1 X91.124 Y148.085 E31.98723
G1 X96.148 Y148.082 E32.15433
G1 X96.427 Y148.042 E32.1637
G1 X96.684 Y147.926 E32.17308
G1 X96.854 Y147.789 E32.18034
G1 X97.136 Y147.507 E32.1936
G1 X97.305 Y147.281 E32.20299
G1 X97.405 Y147.017 E32.21238
G1 X97.429 Y146.8 E32.21964
G1 X97.429 Y144.288 E32.30319
G1 X97.969 Y144.287 E32.32115
G1 X97.969 Y146.294 E32.3879
G1 X98.009 Y146.573 E32.39728
G1 X98.125 Y146.83 E32.40666
G1 X98.262 Y147.001 E32.41394
G1 X98.544 Y147.283 E32.42721
G0 F6000 X98.827 Y147
G1 F1200 X99.006 Y147.124 E32.43445
G1 X99.251 Y147.176 E32.44278
G1 X121.301 Y147.176 E33.17617
G1 X121.516 Y147.136 E33.18344
G1 X121.725 Y147 E33.19174
G1 X122.425 Y146.3 E33.22466
G1 X122.425 Y149.024 E33.31526
G1 X88.901 Y149.024 E34.43027
G1 X88.901 Y143.888 E34.6011
G1 X90.241 Y143.887 E34.64567
G1 X90.241 Y146.803 E34.74265
G1 X90.281 Y147.018 E34.74993
G1 X90.417 Y147.227 E34.75822
G1 X90.699 Y147.509 E34.77149
G1 X90.878 Y147.633 E34.77873
G1 X91.123 Y147.685 E34.78706
G1 X96.147 Y147.682 E34.95416
G1 X96.362 Y147.642 E34.96143
G1 X96.571 Y147.506 E34.96972
G1 X96.853 Y147.224 E34.98299
G1 X96.977 Y147.045 E34.99023
G1 X97.029 Y146.8 E34.99856
G1 X97.029 Y143.888 E35.09541
G1 X98.369 Y143.887 E35.13998
G1 X98.369 Y146.294 E35.22004
G1 X98.409 Y146.509 E35.22731
G1 X98.545 Y146.718 E35.23561
G1 X98.827 Y147 E35.24887
G0 F6000 X96.57 Y146.941
